;FLAVOR:Marlin
;TIME:21532
;Filament used: 19.2923m
;Layer height: 0.2
;MINX:46.8
;MINY:46.8
;MINZ:0.2
;MAXX:175.2
;MAXY:175.2
;MAXZ:18
;Generated with Cura_SteamEngine 5.2.1
M140 S60
M105
M190 S60
M104 S200
M105
M109 S200
M82 ;absolute extrusion mode
G28 ;Home
G1 Z15.0 F1200 ;Move the platform down 15mm
;Prime the extruder
G92 E0
G1 F200 E3
G92 E0
G92 E0
G92 E0
G1 F2400 E-6
;LAYER_COUNT:90
;LAYER:0
M107
M204 S2000
M205 X10 Y10
G0 F3000 X47.789 Y47.704 Z0.2
M204 S1000
M205 X8 Y8
;TYPE:SKIRT
G1 F2400 E0
G1 X48.18 Y47.383 E0.01683
G1 X48.617 Y47.128 E0.03365
G1 X49.088 Y46.944 E0.05047
G1 X49.582 Y46.838 E0.06728
G1 X50.027 Y46.801 E0.08213
G1 X171.339 Y46.8 E4.11698
G1 X172.037 Y46.81 E4.1402
G1 X172.54 Y46.857 E4.157
G1 X173.03 Y46.983 E4.17383
G1 X173.494 Y47.185 E4.19066
G1 X173.92 Y47.457 E4.20747
G1 X174.298 Y47.792 E4.22427
G1 X174.618 Y48.183 E4.24108
G1 X174.873 Y48.62 E4.25791
G1 X175.056 Y49.091 E4.27471
G1 X175.163 Y49.585 E4.29152
G1 X175.199 Y50.24 E4.31334
G1 X175.2 Y171.304 E8.33995
G1 X175.191 Y172.031 E8.36413
G1 X175.145 Y172.534 E8.38093
G1 X175.02 Y173.024 E8.39775
G1 X174.819 Y173.488 E8.41457
G1 X174.548 Y173.915 E8.43139
G1 X174.213 Y174.294 E8.44821
G1 X173.823 Y174.615 E8.46501
G1 X173.387 Y174.871 E8.48183
G1 X172.916 Y175.054 E8.49863
G1 X172.422 Y175.162 E8.51545
G1 X171.76 Y175.199 E8.53751
G1 X50.666 Y175.2 E12.56511
G1 X49.968 Y175.191 E12.58833
G1 X49.464 Y175.144 E12.60516
G1 X48.974 Y175.019 E12.62198
G1 X48.51 Y174.818 E12.6388
G1 X48.084 Y174.547 E12.65559
G1 X47.705 Y174.212 E12.67242
G1 X47.384 Y173.821 E12.68924
G1 X47.129 Y173.385 E12.70604
G1 X46.945 Y172.914 E12.72286
G1 X46.838 Y172.42 E12.73967
G1 X46.801 Y171.967 E12.75479
G1 X46.8 Y50.631 E16.79044
G1 X46.809 Y49.966 E16.81256
G1 X46.856 Y49.462 E16.8294
G1 X46.982 Y48.973 E16.84619
G1 X47.183 Y48.509 E16.86301
G1 X47.454 Y48.082 E16.87983
G1 X47.789 Y47.704 E16.89663
M204 S2000
M205 X10 Y10
G1 F2400 E10.89663
;MESH:MiniMFD.Base.stl
G0 F3000 X50.414 Y49.335
G0 X50.2 Y50.2
M204 S1000
M205 X8 Y8
;TYPE:WALL-OUTER
G1 F2400 E16.89663
G1 F1500 X50.2 Y171.8 E20.94106
G1 X171.8 Y171.8 E24.98549
G1 X171.8 Y53.954 E28.90507
G1 X171.8 Y50.2 E29.02993
G1 X50.2 Y50.2 E33.07436
M204 S2000
M205 X10 Y10
G0 F3000 X50.2 Y50.4
G0 X50.6 Y50.6
M204 S1000
M205 X8 Y8
;TYPE:WALL-INNER
G1 F1500 X50.6 Y171.4 E37.09218
G1 X171.4 Y171.4 E41.11001
G1 X171.4 Y53.954 E45.01628
G1 X171.4 Y50.6 E45.12783
G1 X50.6 Y50.6 E49.14566
M204 S2000
M205 X10 Y10
G0 F3000 X51 Y51
M204 S1000
M205 X8 Y8
G1 F1500 X51 Y171 E53.13687
G1 X171 Y171 E57.12809
G1 X171 Y53.954 E61.02106
G1 X171 Y51 E61.11931
G1 X51 Y51 E65.11052
M204 S2000
M205 X10 Y10
G0 F3000 X55.85 Y56.608
G0 X56.608 Y56.608
M204 S1000
M205 X8 Y8
;TYPE:WALL-OUTER
G1 F1500 X56.715 Y56.552 E65.11454
G1 X63.289 Y56.55 E65.33319
G1 X63.382 Y56.599 E65.33669
G1 X63.449 Y56.723 E65.34137
G1 X63.45 Y63.296 E65.55999
G1 X63.397 Y63.387 E65.5635
G1 X63.25 Y63.45 E65.56882
G1 X56.732 Y63.45 E65.78561
G1 X56.603 Y63.387 E65.79038
G1 X56.552 Y63.285 E65.79417
G1 X56.55 Y56.707 E66.01296
G1 X56.608 Y56.608 E66.01677
M204 S2000
M205 X10 Y10
G0 F3000 X56.715 Y56.552
G0 X56.795 Y56.552
G0 X56.795 Y55.85
G0 X64.078 Y55.922
G0 X64.15 Y63.659
G0 X63.69 Y63.659
M204 S1000
M205 X8 Y8
;TYPE:WALL-INNER
G1 F1500 X63.535 Y63.779 E66.02329
G1 X63.25 Y63.85 E66.03306
G1 X56.697 Y63.849 E66.25102
G1 X56.466 Y63.78 E66.25904
G1 X56.311 Y63.66 E66.26555
G1 X56.206 Y63.505 E66.27178
G1 X56.15 Y63.329 E66.27792
G1 X56.15 Y56.638 E66.50047
G1 X56.234 Y56.442 E66.50756
G1 X56.442 Y56.234 E66.51734
G1 X56.638 Y56.15 E66.52444
G1 X63.364 Y56.15 E66.74814
G1 X63.645 Y56.297 E66.75869
G1 X63.79 Y56.487 E66.76664
G1 X63.845 Y56.67 E66.773
G1 X63.849 Y63.385 E66.99634
G1 X63.69 Y63.659 E67.00688
M204 S2000
M205 X10 Y10
G0 F3000 X64.15 Y63.659
G0 X64.078 Y55.922
G0 X56.478 Y55.787
M204 S1000
M205 X8 Y8
G1 F1500 X56.75 Y55.75 E67.01601
G1 X63.25 Y55.75 E67.2322
G1 X63.497 Y55.78 E67.24047
G1 X63.721 Y55.867 E67.24846
G1 X63.908 Y55.996 E67.25602
G1 X64.149 Y56.311 E67.26921
G1 X64.25 Y56.654 E67.2811
G1 X64.248 Y63.327 E67.50305
G1 X64.206 Y63.546 E67.51047
G1 X63.984 Y63.931 E67.52525
G1 X63.725 Y64.131 E67.53613
G1 X63.25 Y64.25 E67.55242
G1 X56.662 Y64.247 E67.77154
G1 X56.278 Y64.133 E67.78486
G1 X56.019 Y63.934 E67.79572
G1 X55.844 Y63.674 E67.80615
G1 X55.75 Y63.379 E67.81644
G1 X55.75 Y56.75 E68.03693
G1 X55.787 Y56.478 E68.04606
G1 X55.891 Y56.236 E68.05482
G1 X56.042 Y56.042 E68.06299
G1 X56.236 Y55.891 E68.07117
G1 X56.478 Y55.787 E68.07993
M204 S2000
M205 X10 Y10
G0 F3000 X55.922 Y73.578
G0 X56.628 Y72.909
M204 S1000
M205 X8 Y8
;TYPE:WALL-OUTER
G1 F1500 X56.552 Y72.785 E68.08477
G1 X56.554 Y66.206 E68.30359
G1 X56.603 Y66.113 E68.30708
G1 X56.732 Y66.05 E68.31186
G1 X63.25 Y66.05 E68.52865
G1 X63.397 Y66.113 E68.53397
G1 X63.45 Y66.234 E68.53836
G1 X63.45 Y72.766 E68.75562
G1 X63.382 Y72.901 E68.76064
G1 X63.294 Y72.95 E68.76399
G1 X56.732 Y72.95 E68.98225
G1 X56.628 Y72.909 E68.98596
M204 S2000
M205 X10 Y10
G0 F3000 X56.552 Y72.785
G0 X56.552 Y72.73
G0 X55.85 Y72.73
G0 X56.628 Y81.85
G0 X56.628 Y82.591
M204 S1000
M205 X8 Y8
G1 F1500 X56.732 Y82.55 E68.98968
G1 X63.295 Y82.55 E69.20797
G1 X63.45 Y82.698 E69.2151
G1 X63.45 Y84.25 E69.26672
G1 X63.442 Y89.309 E69.43498
G1 X63.376 Y89.406 E69.43888
G1 X63.291 Y89.45 E69.44206
G1 X56.732 Y89.45 E69.66022
G1 X56.615 Y89.399 E69.66446
G1 X56.552 Y89.285 E69.6688
G1 X56.55 Y82.75 E69.88615
G1 X56.628 Y82.591 E69.89204
M204 S2000
M205 X10 Y10
G0 F3000 X56.732 Y82.55
G0 X56.821 Y82.55
G0 X56.821 Y81.85
G0 X63.646 Y81.85
G0 X63.646 Y82.298
M204 S1000
M205 X8 Y8
;TYPE:WALL-INNER
G1 F1500 X63.772 Y82.452 E69.89866
G1 X63.85 Y82.725 E69.9081
G1 X63.85 Y84.25 E69.95882
G1 X63.848 Y89.374 E70.12925
G1 X63.733 Y89.608 E70.13792
G1 X63.628 Y89.717 E70.14295
G1 X63.368 Y89.85 E70.15267
G1 X56.697 Y89.848 E70.37455
G1 X56.503 Y89.797 E70.38122
G1 X56.347 Y89.696 E70.3874
G1 X56.206 Y89.505 E70.3953
G1 X56.15 Y89.329 E70.40144
G1 X56.15 Y82.638 E70.62398
G1 X56.294 Y82.359 E70.63442
G1 X56.481 Y82.213 E70.64232
G1 X56.686 Y82.15 E70.64945
G1 X63.377 Y82.15 E70.87199
G1 X63.646 Y82.298 E70.8822
M204 S2000
M205 X10 Y10
G0 F3000 X63.646 Y81.85
G0 X64.15 Y89.718
G0 X64.135 Y89.718
M204 S1000
M205 X8 Y8
G1 F1500 X63.985 Y89.93 E70.89084
G1 X63.726 Y90.13 E70.90173
G1 X63.512 Y90.216 E70.9094
G1 X63.25 Y90.25 E70.91818
G1 X56.662 Y90.247 E71.1373
G1 X56.338 Y90.162 E71.14844
G1 X56.079 Y89.993 E71.15873
G1 X55.844 Y89.674 E71.17191
G1 X55.75 Y89.379 E71.1822
G1 X55.75 Y82.75 E71.40269
G1 X55.78 Y82.506 E71.41086
G1 X55.864 Y82.284 E71.41876
G1 X56.142 Y81.955 E71.43308
G1 X56.458 Y81.793 E71.44489
G1 X56.662 Y81.753 E71.45181
G1 X63.348 Y81.75 E71.67419
G1 X63.755 Y81.886 E71.68846
G1 X64.01 Y82.099 E71.69951
G1 X64.209 Y82.465 E71.71336
G1 X64.25 Y82.708 E71.72156
G1 X64.25 Y84.25 E71.77285
G1 X64.25 Y89.409 E71.94444
G1 X64.135 Y89.718 E71.9554
M204 S2000
M205 X10 Y10
G0 F3000 X64.15 Y89.718
G0 X55.922 Y94.422
G0 X55.922 Y102.578
G0 X56.615 Y101.899
M204 S1000
M205 X8 Y8
;TYPE:WALL-OUTER
G1 F1500 X56.552 Y101.785 E71.95974
G1 X56.554 Y95.206 E72.17855
G1 X56.615 Y95.101 E72.18259
G1 X56.732 Y95.05 E72.18684
G1 X63.291 Y95.05 E72.40499
G1 X63.376 Y95.094 E72.40817
G1 X63.447 Y95.211 E72.41273
G1 X63.443 Y101.806 E72.63208
G1 X63.375 Y101.907 E72.63613
G1 X63.29 Y101.95 E72.6393
G1 X56.732 Y101.95 E72.85742
G1 X56.615 Y101.899 E72.86166
M204 S2000
M205 X10 Y10
G0 F3000 X56.552 Y101.785
G0 X56.552 Y101.715
G0 X55.85 Y101.715
G0 X55.922 Y102.578
G0 X63.366 Y102.65
G0 X63.366 Y102.35
M204 S1000
M205 X8 Y8
;TYPE:WALL-INNER
G1 F1500 X56.697 Y102.348 E73.08347
G1 X56.503 Y102.297 E73.09014
G1 X56.347 Y102.196 E73.09632
G1 X56.206 Y102.005 E73.10422
G1 X56.15 Y101.829 E73.11036
G1 X56.15 Y95.159 E73.33221
G1 X56.206 Y94.995 E73.33797
G1 X56.347 Y94.804 E73.34587
G1 X56.503 Y94.703 E73.35205
G1 X56.697 Y94.652 E73.35872
G1 X63.368 Y94.65 E73.5806
G1 X63.628 Y94.783 E73.59031
G1 X63.733 Y94.892 E73.59535
G1 X63.85 Y95.136 E73.60435
G1 X63.849 Y101.79 E73.82566
G1 X63.779 Y102.035 E73.83414
G1 X63.624 Y102.22 E73.84216
G1 X63.366 Y102.35 E73.85177
M204 S2000
M205 X10 Y10
G0 F3000 X63.366 Y102.65
G0 X64.078 Y94.422
G0 X63.512 Y94.284
M204 S1000
M205 X8 Y8
G1 F1500 X63.726 Y94.37 E73.85944
G1 X63.985 Y94.57 E73.87033
G1 X64.206 Y94.955 E73.88509
G1 X64.251 Y95.25 E73.89502
G1 X64.248 Y101.817 E74.11344
G1 X64.186 Y102.104 E74.1232
G1 X64.049 Y102.353 E74.13265
G1 X63.873 Y102.534 E74.14105
G1 X63.507 Y102.717 E74.15466
G1 X63.25 Y102.75 E74.16328
G1 X56.662 Y102.747 E74.3824
G1 X56.338 Y102.662 E74.39354
G1 X56.079 Y102.493 E74.40382
G1 X55.844 Y102.174 E74.417
G1 X55.75 Y101.879 E74.4273
G1 X55.75 Y95.1 E74.65277
G1 X55.844 Y94.826 E74.66241
G1 X56.079 Y94.507 E74.67558
G1 X56.338 Y94.338 E74.68587
G1 X56.662 Y94.253 E74.69701
G1 X63.25 Y94.25 E74.91613
G1 X63.512 Y94.284 E74.92492
M204 S2000
M205 X10 Y10
G0 F3000 X64.078 Y102.578
G0 X55.922 Y106.922
G0 X55.922 Y115.078
G0 X56.615 Y114.399
M204 S1000
M205 X8 Y8
;TYPE:WALL-OUTER
G1 F1500 X56.552 Y114.285 E74.92925
G1 X56.554 Y107.706 E75.14807
G1 X56.615 Y107.601 E75.1521
G1 X56.732 Y107.55 E75.15635
G1 X63.287 Y107.55 E75.37437
G1 X63.42 Y107.643 E75.37977
G1 X63.448 Y107.721 E75.38252
G1 X63.443 Y114.306 E75.60154
G1 X63.396 Y114.388 E75.60469
G1 X63.287 Y114.45 E75.60886
G1 X56.732 Y114.45 E75.82688
G1 X56.615 Y114.399 E75.83112
M204 S2000
M205 X10 Y10
G0 F3000 X56.552 Y114.285
G0 X56.552 Y114.215
G0 X55.85 Y114.215
G0 X55.922 Y115.078
G0 X63.624 Y115.15
G0 X63.624 Y114.72
M204 S1000
M205 X8 Y8
;TYPE:WALL-INNER
G1 F1500 X63.366 Y114.85 E75.84073
G1 X56.697 Y114.848 E76.06254
G1 X56.503 Y114.797 E76.06921
G1 X56.347 Y114.696 E76.0754
G1 X56.206 Y114.505 E76.08329
G1 X56.15 Y114.329 E76.08943
G1 X56.15 Y107.659 E76.31128
G1 X56.206 Y107.495 E76.31704
G1 X56.347 Y107.304 E76.32494
G1 X56.503 Y107.203 E76.33112
G1 X56.697 Y107.152 E76.33779
G1 X63.25 Y107.15 E76.55575
G1 X63.532 Y107.219 E76.5654
G1 X63.687 Y107.338 E76.5719
G1 X63.779 Y107.465 E76.57712
G1 X63.844 Y107.663 E76.58405
G1 X63.85 Y107.729 E76.58625
G1 X63.847 Y114.311 E76.80517
G1 X63.804 Y114.483 E76.81107
G1 X63.624 Y114.72 E76.82097
M204 S2000
M205 X10 Y10
G0 F3000 X63.624 Y115.15
G0 X64.078 Y106.922
G0 X63.507 Y106.783
M204 S1000
M205 X8 Y8
G1 F1500 X63.873 Y106.966 E76.83458
G1 X64.131 Y107.275 E76.84797
G1 X64.24 Y107.606 E76.85956
G1 X64.25 Y107.716 E76.86323
G1 X64.25 Y114.284 E77.08168
G1 X64.186 Y114.604 E77.09254
G1 X64.049 Y114.853 E77.10199
G1 X63.873 Y115.034 E77.11039
G1 X63.507 Y115.217 E77.124
G1 X63.25 Y115.25 E77.13261
G1 X56.662 Y115.247 E77.35173
G1 X56.338 Y115.162 E77.36287
G1 X56.079 Y114.993 E77.37316
G1 X55.844 Y114.674 E77.38634
G1 X55.75 Y114.379 E77.39663
G1 X55.75 Y107.6 E77.62211
G1 X55.844 Y107.326 E77.63174
G1 X56.079 Y107.007 E77.64492
G1 X56.338 Y106.838 E77.6552
G1 X56.662 Y106.753 E77.66635
G1 X63.25 Y106.75 E77.88546
G1 X63.507 Y106.783 E77.89408
M204 S2000
M205 X10 Y10
G0 F3000 X64.078 Y115.078
G0 X55.922 Y119.422
G0 X55.922 Y127.578
G0 X56.615 Y126.899
M204 S1000
M205 X8 Y8
;TYPE:WALL-OUTER
G1 F1500 X56.552 Y126.785 E77.89841
G1 X56.554 Y120.206 E78.11723
G1 X56.615 Y120.101 E78.12127
G1 X56.732 Y120.05 E78.12552
G1 X63.287 Y120.05 E78.34354
G1 X63.396 Y120.112 E78.34771
G1 X63.444 Y120.201 E78.35107
G1 X63.451 Y126.75 E78.56889
G1 X63.421 Y126.856 E78.57255
G1 X63.291 Y126.95 E78.57789
G1 X56.732 Y126.95 E78.79604
G1 X56.615 Y126.899 E78.80029
M204 S2000
M205 X10 Y10
G0 F3000 X56.552 Y126.785
G0 X56.552 Y126.715
G0 X55.85 Y126.715
G0 X55.85 Y120.159
G0 X56.15 Y120.159
M204 S1000
M205 X8 Y8
;TYPE:WALL-INNER
G1 F1500 X56.206 Y119.995 E78.80605
G1 X56.347 Y119.804 E78.81395
G1 X56.503 Y119.703 E78.82013
G1 X56.697 Y119.652 E78.8268
G1 X63.366 Y119.65 E79.04861
G1 X63.624 Y119.78 E79.05822
G1 X63.729 Y119.888 E79.06323
G1 X63.832 Y120.103 E79.07116
G1 X63.85 Y120.221 E79.07513
G1 X63.849 Y126.872 E79.29634
G1 X63.733 Y127.108 E79.30509
G1 X63.628 Y127.217 E79.31012
G1 X63.368 Y127.35 E79.31984
G1 X56.697 Y127.348 E79.54172
G1 X56.503 Y127.297 E79.54839
G1 X56.347 Y127.196 E79.55457
G1 X56.206 Y127.005 E79.56247
G1 X56.15 Y126.829 E79.56861
G1 X56.15 Y120.159 E79.79045
M204 S2000
M205 X10 Y10
G0 F3000 X55.75 Y120.1
M204 S1000
M205 X8 Y8
G1 F1500 X55.844 Y119.826 E79.80009
G1 X56.079 Y119.507 E79.81327
G1 X56.338 Y119.338 E79.82355
G1 X56.662 Y119.253 E79.83469
G1 X63.25 Y119.25 E80.05381
G1 X63.507 Y119.283 E80.06243
G1 X63.873 Y119.466 E80.07604
G1 X64.049 Y119.647 E80.08444
G1 X64.22 Y120.005 E80.09763
G1 X64.25 Y120.216 E80.10472
G1 X64.249 Y126.804 E80.32384
G1 X64.135 Y127.218 E80.33812
G1 X63.985 Y127.43 E80.34676
G1 X63.726 Y127.63 E80.35764
G1 X63.512 Y127.716 E80.36531
G1 X63.25 Y127.75 E80.3741
G1 X56.662 Y127.747 E80.59322
G1 X56.338 Y127.662 E80.60436
G1 X56.079 Y127.493 E80.61464
G1 X55.844 Y127.174 E80.62782
G1 X55.75 Y126.879 E80.63812
G1 X55.75 Y120.1 E80.86359
M204 S2000
M205 X10 Y10
G0 F3000 X55.922 Y140.078
G0 X56.628 Y139.409
M204 S1000
M205 X8 Y8
;TYPE:WALL-OUTER
G1 F1500 X56.552 Y139.285 E80.86843
G1 X56.554 Y132.706 E81.08725
G1 X56.615 Y132.601 E81.09129
G1 X56.732 Y132.55 E81.09553
G1 X63.291 Y132.55 E81.31368
G1 X63.376 Y132.594 E81.31687
G1 X63.445 Y132.704 E81.32119
G1 X63.449 Y139.277 E81.53981
G1 X63.41 Y139.372 E81.54322
G1 X63.294 Y139.45 E81.54787
G1 X56.732 Y139.45 E81.76612
G1 X56.628 Y139.409 E81.76984
M204 S2000
M205 X10 Y10
G0 F3000 X56.552 Y139.285
G0 X56.552 Y139.23
G0 X55.85 Y139.23
G0 X55.922 Y140.078
G0 X63.646 Y140.15
G0 X63.646 Y139.702
M204 S1000
M205 X8 Y8
;TYPE:WALL-INNER
G1 F1500 X63.377 Y139.85 E81.78005
G1 X56.686 Y139.85 E82.0026
G1 X56.48 Y139.787 E82.00976
G1 X56.294 Y139.641 E82.01763
G1 X56.15 Y139.363 E82.02804
G1 X56.15 Y132.659 E82.25101
G1 X56.206 Y132.495 E82.25678
G1 X56.347 Y132.304 E82.26467
G1 X56.503 Y132.203 E82.27086
G1 X56.697 Y132.152 E82.27753
G1 X63.368 Y132.15 E82.49941
G1 X63.628 Y132.283 E82.50912
G1 X63.733 Y132.392 E82.51415
G1 X63.835 Y132.614 E82.52228
G1 X63.85 Y132.73 E82.52617
G1 X63.85 Y139.275 E82.74386
G1 X63.772 Y139.548 E82.7533
G1 X63.646 Y139.702 E82.75992
M204 S2000
M205 X10 Y10
G0 F3000 X63.646 Y140.15
G0 X64.15 Y132.282
G0 X64.135 Y132.282
M204 S1000
M205 X8 Y8
G1 F1500 X64.225 Y132.524 E82.76851
G1 X64.25 Y132.717 E82.77498
G1 X64.25 Y139.292 E82.99366
G1 X64.209 Y139.535 E83.00186
G1 X64.075 Y139.816 E83.01222
G1 X63.755 Y140.114 E83.02676
G1 X63.348 Y140.25 E83.04103
G1 X56.662 Y140.247 E83.26341
G1 X56.458 Y140.207 E83.27032
G1 X56.141 Y140.044 E83.28218
G1 X55.864 Y139.716 E83.29646
G1 X55.779 Y139.494 E83.30436
G1 X55.75 Y139.25 E83.31254
G1 X55.75 Y132.6 E83.53372
G1 X55.844 Y132.326 E83.54335
G1 X56.079 Y132.007 E83.55653
G1 X56.338 Y131.838 E83.56682
G1 X56.662 Y131.753 E83.57796
G1 X63.25 Y131.75 E83.79707
G1 X63.512 Y131.784 E83.80586
G1 X63.726 Y131.87 E83.81353
G1 X63.985 Y132.07 E83.82442
G1 X64.135 Y132.282 E83.83305
M204 S2000
M205 X10 Y10
G0 F3000 X64.15 Y132.282
G0 X64.078 Y140.078
G0 X56.628 Y148.35
G0 X56.628 Y149.091
M204 S1000
M205 X8 Y8
;TYPE:WALL-OUTER
G1 F1500 X56.732 Y149.05 E83.83677
G1 X63.295 Y149.05 E84.05506
G1 X63.382 Y149.099 E84.05838
G1 X63.446 Y149.205 E84.0625
G1 X63.45 Y155.796 E84.28172
G1 X63.327 Y155.95 E84.28827
G1 X56.732 Y155.95 E84.50762
G1 X56.603 Y155.887 E84.5124
G1 X56.552 Y155.785 E84.51619
G1 X56.55 Y149.25 E84.73354
G1 X56.556 Y149.201 E84.73519
G1 X56.628 Y149.091 E84.73956
M204 S2000
M205 X10 Y10
G0 F3000 X56.732 Y149.05
G0 X56.821 Y149.05
G0 X56.821 Y148.35
G0 X64.078 Y148.422
G0 X64.15 Y156.159
G0 X63.69 Y156.159
M204 S1000
M205 X8 Y8
;TYPE:WALL-INNER
G1 F1500 X63.535 Y156.279 E84.74608
G1 X63.25 Y156.35 E84.75585
G1 X56.697 Y156.349 E84.9738
G1 X56.466 Y156.28 E84.98182
G1 X56.311 Y156.16 E84.98834
G1 X56.206 Y156.005 E84.99457
G1 X56.15 Y155.829 E85.00071
G1 X56.15 Y149.25 E85.21953
G1 X56.168 Y149.103 E85.22445
G1 X56.294 Y148.859 E85.23359
G1 X56.481 Y148.713 E85.24148
G1 X56.686 Y148.65 E85.24861
G1 X63.377 Y148.65 E85.47115
G1 X63.646 Y148.798 E85.48137
G1 X63.772 Y148.952 E85.48798
