;FLAVOR:Marlin
;TIME:5067
;Filament used: 3.16329m
;Layer height: 0.2
;MINX:77.4
;MINY:76.4
;MINZ:0.2
;MAXX:144.606
;MAXY:145.6
;MAXZ:8
;Generated with Cura_SteamEngine 5.2.1
M140 S60
M105
M190 S60
M104 S200
M105
M109 S200
M82 ;absolute extrusion mode
G28 ;Home
G1 Z15.0 F1200 ;Move the platform down 15mm
;Prime the extruder
G92 E0
G1 F200 E3
G92 E0
G92 E0
G92 E0
G1 F2400 E-6
;LAYER_COUNT:40
;LAYER:0
M107
M204 S2000
M205 X10 Y10
G0 F3000 X86.395 Y85.833 Z0.2
M204 S1000
M205 X8 Y8
;TYPE:SKIRT
G1 F2400 E0
G1 X86.806 Y85.488 E0.01785
G1 X87.425 Y85.131 E0.04161
G1 X88.409 Y84.686 E0.07753
G1 X90.876 Y83.525 E0.16822
G1 X93.357 Y82.273 E0.26065
G1 X95.738 Y80.984 E0.3507
G1 X98.095 Y79.62 E0.44128
G1 X100.412 Y78.191 E0.53182
G1 X101.809 Y77.274 E0.5874
G1 X102.295 Y76.967 E0.60652
G1 X102.769 Y76.716 E0.62436
G1 X103.274 Y76.537 E0.64218
G1 X103.801 Y76.435 E0.66003
G1 X104.544 Y76.4 E0.68477
G1 X114.563 Y76.4 E1.018
G1 X115.266 Y76.411 E1.04139
G1 X115.8 Y76.46 E1.05922
G1 X116.321 Y76.587 E1.07706
G1 X116.822 Y76.792 E1.09506
G1 X117.481 Y77.122 E1.11958
G1 X119.995 Y78.344 E1.21255
G1 X122.445 Y79.45 E1.30195
G1 X125.001 Y80.518 E1.39409
G1 X127.53 Y81.492 E1.48423
G1 X128.182 Y81.733 E1.50735
G1 X128.67 Y81.956 E1.52519
G1 X129.238 Y82.327 E1.54776
G1 X130.36 Y83.43 E1.60009
G1 X130.759 Y83.834 E1.61897
G1 X132.747 Y85.731 E1.71037
G1 X134.757 Y87.544 E1.8004
G1 X136.833 Y89.315 E1.89116
G1 X138.542 Y90.692 E1.96415
G1 X138.981 Y91.119 E1.98452
G1 X139.306 Y91.546 E2.00237
G1 X139.564 Y92.016 E2.0202
G1 X139.742 Y92.494 E2.03717
G1 X140.007 Y93.4 E2.06856
G1 X140.275 Y94.368 E2.10197
G1 X141.073 Y96.964 E2.1923
G1 X141.942 Y99.542 E2.28279
G1 X142.892 Y102.118 E2.3741
G1 X143.962 Y104.781 E2.46956
G1 X144.311 Y105.616 E2.49966
G1 X144.481 Y106.124 E2.51748
G1 X144.606 Y107.017 E2.54747
G1 X144.586 Y108.266 E2.58901
G1 X144.483 Y109.059 E2.61561
G1 X144.25 Y110.697 E2.67064
G1 X143.941 Y113.413 E2.76156
G1 X143.707 Y116.143 E2.85269
G1 X143.555 Y118.828 E2.94214
G1 X143.475 Y121.629 E3.03534
G1 X143.456 Y123.535 E3.09873
G1 X143.4 Y124.187 E3.1205
G1 X143.129 Y125.172 E3.15448
G1 X142.426 Y127.873 E3.24731
G1 X141.864 Y130.304 E3.33029
G1 X141.705 Y130.816 E3.34813
G1 X141.471 Y131.299 E3.36598
G1 X141.168 Y131.742 E3.38383
G1 X140.803 Y132.134 E3.40164
G1 X140.284 Y132.548 E3.42372
G1 X139.456 Y132.98 E3.45479
G1 X137.973 Y133.73 E3.51006
G1 X135.554 Y135.04 E3.60156
G1 X133.188 Y136.409 E3.69247
G1 X130.89 Y137.827 E3.78228
G1 X129.558 Y138.701 E3.83527
G1 X128.898 Y139.121 E3.86129
G1 X126.264 Y140.453 E3.95946
G1 X123.87 Y141.749 E4.05001
G1 X121.491 Y143.125 E4.14142
G1 X119.2 Y144.538 E4.23094
G1 X118.432 Y145.027 E4.26122
G1 X117.959 Y145.28 E4.27907
G1 X117.454 Y145.461 E4.29691
G1 X116.928 Y145.564 E4.31474
G1 X116.17 Y145.6 E4.33997
G1 X106.152 Y145.6 E4.67317
G1 X105.234 Y145.586 E4.70371
G1 X103.534 Y145.363 E4.76074
G1 X100.769 Y145.048 E4.8533
G1 X98.051 Y144.817 E4.94402
G1 X95.328 Y144.662 E5.03474
G1 X92.897 Y144.588 E5.11563
G1 X92.363 Y144.532 E5.13349
G1 X91.844 Y144.397 E5.15133
G1 X91.351 Y144.187 E5.16915
G1 X90.895 Y143.905 E5.18698
G1 X90.485 Y143.559 E5.20482
G1 X90.131 Y143.156 E5.22267
G1 X89.731 Y142.483 E5.2487
G1 X89.423 Y141.807 E5.27341
G1 X88.257 Y139.329 E5.3645
G1 X87.03 Y136.902 E5.45495
G1 X85.728 Y134.497 E5.54591
G1 X84.36 Y132.132 E5.63678
G1 X82.941 Y129.834 E5.72661
G1 X82.111 Y128.568 E5.77696
G1 X81.766 Y128.024 E5.79839
G1 X81.481 Y127.492 E5.81846
G1 X80.834 Y125.651 E5.88336
G1 X79.854 Y123.021 E5.97671
G1 X78.843 Y120.52 E6.06644
G1 X77.713 Y117.942 E6.16006
G1 X77.535 Y117.436 E6.1779
G1 X77.434 Y116.909 E6.19574
G1 X77.4 Y116.17 E6.22035
G1 X77.4 Y106.156 E6.55342
G1 X77.41 Y105.452 E6.57683
G1 X77.458 Y104.918 E6.59467
G1 X77.584 Y104.397 E6.61249
G1 X77.869 Y103.743 E6.63622
G1 X79.403 Y101.005 E6.74061
G1 X80.655 Y98.605 E6.83064
G1 X81.858 Y96.131 E6.92214
G1 X82.972 Y93.663 E7.0122
G1 X84.018 Y91.162 E7.10237
G1 X85.013 Y88.576 E7.19452
G1 X85.527 Y87.173 E7.24422
G1 X85.749 Y86.685 E7.26205
G1 X86.04 Y86.235 E7.27988
G1 X86.395 Y85.833 E7.29771
M204 S2000
M205 X10 Y10
G0 F3000 X86.738 Y86.059
M204 S1000
M205 X8 Y8
G1 F2400 X87.135 Y85.747 E7.31451
G1 X87.59 Y85.495 E7.33181
G1 X88.565 Y85.054 E7.3674
G1 X91.078 Y83.872 E7.45976
G1 X93.55 Y82.624 E7.55187
G1 X95.908 Y81.347 E7.64106
G1 X98.299 Y79.964 E7.73293
G1 X100.645 Y78.517 E7.8246
G1 X102.023 Y77.613 E7.87942
G1 X102.509 Y77.306 E7.89854
G1 X102.956 Y77.07 E7.91535
G1 X103.435 Y76.908 E7.93217
G1 X104.202 Y76.8 E7.95793
G1 X114.557 Y76.8 E8.30234
G1 X115.26 Y76.811 E8.32572
G1 X115.763 Y76.859 E8.34253
G1 X116.383 Y77.02 E8.36384
G1 X117.306 Y77.482 E8.39817
G1 X119.821 Y78.704 E8.49117
G1 X122.276 Y79.813 E8.58076
G1 X124.851 Y80.889 E8.67359
G1 X127.391 Y81.867 E8.76411
G1 X128.043 Y82.108 E8.78723
G1 X128.502 Y82.321 E8.80406
G1 X129.001 Y82.655 E8.82403
G1 X130.075 Y83.711 E8.87413
G1 X130.464 Y84.104 E8.89252
G1 X132.486 Y86.035 E8.98551
G1 X134.493 Y87.845 E9.0754
G1 X136.59 Y89.632 E9.16704
G1 X138.289 Y91.002 E9.23963
G1 X138.701 Y91.406 E9.25882
G1 X139.001 Y91.812 E9.27561
G1 X139.286 Y92.362 E9.29622
G1 X139.621 Y93.507 E9.3359
G1 X139.88 Y94.444 E9.36823
G1 X140.698 Y97.105 E9.46082
G1 X141.574 Y99.704 E9.55204
G1 X142.517 Y102.258 E9.6426
G1 X143.573 Y104.888 E9.73686
G1 X143.942 Y105.77 E9.76866
G1 X144.1 Y106.25 E9.78546
G1 X144.205 Y107.032 E9.81171
G1 X144.186 Y108.257 E9.85246
G1 X143.851 Y110.662 E9.93322
G1 X143.543 Y113.37 E10.02387
G1 X143.31 Y116.087 E10.11457
G1 X143.155 Y118.828 E10.20588
G1 X143.075 Y121.618 E10.29871
G1 X143.056 Y123.53 E10.36231
G1 X143.003 Y124.124 E10.38214
G1 X142.731 Y125.114 E10.41629
G1 X142.042 Y127.763 E10.50733
G1 X141.475 Y130.214 E10.591
G1 X141.322 Y130.696 E10.60782
G1 X141.096 Y131.148 E10.62463
G1 X140.801 Y131.559 E10.64146
G1 X140.445 Y131.918 E10.65827
G1 X139.84 Y132.329 E10.6826
G1 X139.314 Y132.604 E10.70234
G1 X137.796 Y133.371 E10.75891
G1 X135.342 Y134.699 E10.85171
G1 X133.01 Y136.05 E10.94135
G1 X130.666 Y137.496 E11.03296
G1 X129.38 Y138.34 E11.08412
G1 X128.692 Y138.777 E11.11123
G1 X126.073 Y140.101 E11.20883
G1 X123.659 Y141.409 E11.30015
G1 X121.313 Y142.765 E11.39028
G1 X118.946 Y144.225 E11.48278
G1 X118.217 Y144.689 E11.51152
G1 X117.77 Y144.926 E11.52834
G1 X117.292 Y145.09 E11.54515
G1 X116.526 Y145.199 E11.57089
G1 X106.158 Y145.2 E11.91573
G1 X105.258 Y145.186 E11.94566
G1 X103.525 Y144.959 E12.0038
G1 X100.812 Y144.65 E12.09462
G1 X98.107 Y144.42 E12.18491
G1 X95.364 Y144.264 E12.27629
G1 X92.909 Y144.189 E12.35798
G1 X92.407 Y144.133 E12.37478
G1 X91.919 Y143.999 E12.39161
G1 X91.459 Y143.79 E12.40842
G1 X91.037 Y143.512 E12.42522
G1 X90.664 Y143.17 E12.44206
G1 X90.35 Y142.774 E12.45887
G1 X90.095 Y142.317 E12.47627
G1 X89.787 Y141.641 E12.50098
G1 X88.618 Y139.157 E12.59229
G1 X87.382 Y136.711 E12.68344
G1 X86.074 Y134.297 E12.77476
G1 X84.712 Y131.943 E12.86521
G1 X83.266 Y129.6 E12.95679
G1 X82.449 Y128.354 E13.00634
G1 X82.104 Y127.81 E13.02777
G1 X81.787 Y127.157 E13.05191
G1 X81.209 Y125.511 E13.10994
G1 X80.229 Y122.879 E13.20335
G1 X79.216 Y120.376 E13.29316
G1 X78.079 Y117.781 E13.38739
G1 X77.913 Y117.303 E13.40422
G1 X77.801 Y116.526 E13.43033
G1 X77.8 Y106.162 E13.77504
G1 X77.81 Y105.458 E13.79845
G1 X77.857 Y104.954 E13.81529
G1 X77.983 Y104.465 E13.83209
G1 X78.218 Y103.939 E13.85125
G1 X79.756 Y101.195 E13.95587
G1 X81.012 Y98.786 E14.04623
G1 X82.218 Y96.305 E14.13798
G1 X83.335 Y93.832 E14.22824
G1 X84.402 Y91.281 E14.32021
G1 X85.386 Y88.723 E14.41136
G1 X85.903 Y87.311 E14.46137
G1 X86.114 Y86.851 E14.47821
G1 X86.394 Y86.431 E14.495
G1 X86.738 Y86.059 E14.51185
M204 S2000
M205 X10 Y10
G1 F2400 E8.51185
;MESH:MiniMFD.Button.Edge.stl(3)
G0 F3000 X89.314 Y87.739
G0 X89.314 Y88.818
G0 X89.77 Y95.534
G1 F2400 E14.51185
G0 F3000 X88.944 Y95.653
M204 S1000
M205 X8 Y8
;TYPE:WALL-OUTER
G1 F1195.2 X88.15 Y95.654 E14.54499
G1 F1200 X88.15 Y96.154 E14.56578
G1 F1195.2 X88.987 Y96.152 E14.60072
G1 F1327.4 X89.9 Y96.204 E14.63509
G1 F1500 X93.9 Y96.204 E14.76813
G1 F1333.3 X94.15 Y96.404 E14.78011
G1 F1200 X94.15 Y97.654 E14.83208
G1 X94.65 Y97.654 E14.85286
G1 X94.65 Y96.404 E14.90483
G1 F1333.3 X94.7 Y95.404 E14.9423
G1 F1500 X94.7 Y89.404 E15.14186
G1 F1330.4 X94.649 Y88.491 E15.17615
G1 F1197.6 X94.65 Y87.404 E15.22143
G1 F1200 X94.65 Y87.154 E15.23182
G1 X94.15 Y87.154 E15.25261
G1 F1197.6 X94.149 Y88.448 E15.30652
G1 F1330.4 X93.9 Y88.604 E15.31754
G1 F1500 X89.1 Y88.604 E15.47719
G1 X89.1 Y95.404 E15.70335
G1 F1327.4 X88.944 Y95.653 E15.7144
M204 S2000
M205 X10 Y10
G0 F3000 X88.744 Y95.653
G0 X88.744 Y95.904
G0 X89.77 Y89.274
G0 X89.5 Y89.004
M204 S1000
M205 X8 Y8
;TYPE:WALL-INNER
G1 F1500 X89.5 Y95.404 E15.92726
G1 X89.164 Y95.804 E15.94464
G1 X93.9 Y95.804 E16.10216
G1 X94.3 Y96.204 E16.12097
G1 X94.3 Y88.67 E16.37155
G1 X93.9 Y89.004 E16.38889
G1 X89.5 Y89.004 E16.53523
M204 S2000
M205 X10 Y10
G0 F3000 X89.9 Y89.404
M204 S1000
M205 X8 Y8
G1 F1500 X89.9 Y95.404 E16.73479
G1 X93.9 Y95.404 E16.86783
G1 X93.9 Y89.404 E17.06739
G1 X89.9 Y89.404 E17.20043
M204 S2000
M205 X10 Y10
G0 F3000 X90.28 Y89.784
M204 S1000
M205 X8 Y8
;TYPE:SKIN
G1 F1500 X90.28 Y95.024 E17.37472
G1 X93.52 Y95.024 E17.48248
G1 X93.52 Y91.404 E17.60288
G1 X93.52 Y89.784 E17.65676
G1 X90.28 Y89.784 E17.76453
M204 S2000
M205 X10 Y10
G0 F3000 X93.319 Y90.491
M204 S1000
M205 X8 Y8
G1 F1500 X92.812 Y89.984 E17.78837
M204 S2000
M205 X10 Y10
G0 F3000 X92.247 Y89.984
M204 S1000
M205 X8 Y8
G1 F1500 X93.319 Y91.056 E17.8388
M204 S2000
M205 X10 Y10
G0 F3000 X93.319 Y91.622
M204 S1000
M205 X8 Y8
G1 F1500 X91.681 Y89.984 E17.91584
M204 S2000
M205 X10 Y10
G0 F3000 X91.115 Y89.984
M204 S1000
M205 X8 Y8
G1 F1500 X93.319 Y92.188 E18.01951
M204 S2000
M205 X10 Y10
G0 F3000 X93.319 Y92.754
M204 S1000
M205 X8 Y8
G1 F1500 X90.549 Y89.984 E18.14981
M204 S2000
M205 X10 Y10
G0 F3000 X90.479 Y90.479
M204 S1000
M205 X8 Y8
G1 F1500 X93.319 Y93.319 E18.28339
M204 S2000
M205 X10 Y10
G0 F3000 X93.319 Y93.885
M204 S1000
M205 X8 Y8
G1 F1500 X90.479 Y91.044 E18.417
M204 S2000
M205 X10 Y10
G0 F3000 X90.479 Y91.61
M204 S1000
M205 X8 Y8
G1 F1500 X93.319 Y94.451 E18.55061
M204 S2000
M205 X10 Y10
G0 F3000 X93.125 Y94.823
M204 S1000
M205 X8 Y8
G1 F1500 X90.479 Y92.176 E18.67509
M204 S2000
M205 X10 Y10
G0 F3000 X90.479 Y92.742
M204 S1000
M205 X8 Y8
G1 F1500 X92.56 Y94.823 E18.77297
M204 S2000
M205 X10 Y10
G0 F3000 X91.994 Y94.823
M204 S1000
M205 X8 Y8
G1 F1500 X90.479 Y93.307 E18.84426
M204 S2000
M205 X10 Y10
G0 F3000 X90.479 Y93.873
M204 S1000
M205 X8 Y8
G1 F1500 X91.428 Y94.823 E18.88892
M204 S2000
M205 X10 Y10
G0 F3000 X90.863 Y94.823
M204 S1000
M205 X8 Y8
G1 F1500 X90.479 Y94.439 E18.90698
M204 S2000
M205 X10 Y10
G1 F2400 E12.90698
;MESH:MiniMFD.Button.stl(2)
G0 F3000 X94.48 Y91.347
G0 X96.82 Y91.347
G0 X101.53 Y91.347
G1 F2400 E18.90698
G0 F3000 X101.649 Y90.521
M204 S1000
M205 X8 Y8
;TYPE:WALL-OUTER
G1 F1330.4 X101.4 Y90.677 E18.918
G1 F1500 X96.6 Y90.677 E19.07765
G1 X96.6 Y98.277 E19.33043
G1 X101.4 Y98.277 E19.49008
G1 F1333.3 X101.65 Y98.477 E19.50206
G1 F1200 X101.65 Y99.727 E19.55402
G1 X102.15 Y99.727 E19.57481
G1 X102.15 Y98.477 E19.62678
G1 F1333.3 X102.2 Y97.477 E19.66425
G1 F1500 X102.2 Y91.477 E19.86381
G1 F1330.4 X102.149 Y90.564 E19.8981
G1 F1197.6 X102.15 Y89.477 E19.94338
G1 F1200 X102.15 Y89.227 E19.95377
G1 X101.65 Y89.227 E19.97456
G1 F1197.6 X101.649 Y90.521 E20.02847
M204 S2000
M205 X10 Y10
G0 F3000 X101.48 Y90.627
G0 X101.48 Y91.377
G0 X97.27 Y91.347
G0 X97 Y91.077
M204 S1000
M205 X8 Y8
;TYPE:WALL-INNER
G1 F1500 X97 Y97.877 E20.25464
G1 X101.4 Y97.877 E20.40098
G1 X101.8 Y98.277 E20.4198
G1 X101.8 Y90.743 E20.67038
G1 X101.4 Y91.077 E20.68771
G1 X97 Y91.077 E20.83405
M204 S2000
M205 X10 Y10
G0 F3000 X97.4 Y91.477
M204 S1000
M205 X8 Y8
G1 F1500 X97.4 Y97.477 E21.03362
G1 X101.4 Y97.477 E21.16666
G1 X101.4 Y91.477 E21.36622
G1 X97.4 Y91.477 E21.49926
M204 S2000
M205 X10 Y10
G0 F3000 X97.78 Y91.857
M204 S1000
M205 X8 Y8
;TYPE:SKIN
G1 F1500 X97.78 Y97.097 E21.67354
G1 X101.02 Y97.097 E21.7813
G1 X101.02 Y93.477 E21.9017
G1 X101.02 Y91.857 E21.95559
G1 X97.78 Y91.857 E22.06335
M204 S2000
M205 X10 Y10
G0 F3000 X100.542 Y92.056
M204 S1000
M205 X8 Y8
G1 F1500 X100.819 Y92.334 E22.0764
M204 S2000
M205 X10 Y10
G0 F3000 X100.819 Y92.899
M204 S1000
M205 X8 Y8
G1 F1500 X99.976 Y92.056 E22.11605
M204 S2000
M205 X10 Y10
G0 F3000 X99.41 Y92.056
M204 S1000
M205 X8 Y8
G1 F1500 X100.819 Y93.465 E22.18233
M204 S2000
M205 X10 Y10
G0 F3000 X100.819 Y94.031
M204 S1000
M205 X8 Y8
G1 F1500 X98.845 Y92.056 E22.2752
M204 S2000
M205 X10 Y10
G0 F3000 X98.279 Y92.056
M204 S1000
M205 X8 Y8
G1 F1500 X100.819 Y94.596 E22.39468
M204 S2000
M205 X10 Y10
G0 F3000 X100.819 Y95.162
M204 S1000
M205 X8 Y8
G1 F1500 X97.978 Y92.321 E22.52831
M204 S2000
M205 X10 Y10
G0 F3000 X97.978 Y92.887
M204 S1000
M205 X8 Y8
G1 F1500 X100.819 Y95.728 E22.66194
M204 S2000
M205 X10 Y10
G0 F3000 X100.819 Y96.293
M204 S1000
M205 X8 Y8
G1 F1500 X97.978 Y93.453 E22.79555
M204 S2000
M205 X10 Y10
G0 F3000 X97.978 Y94.019
M204 S1000
M205 X8 Y8
G1 F1500 X100.819 Y96.859 E22.92916
M204 S2000
M205 X10 Y10
G0 F3000 X100.291 Y96.896
M204 S1000
M205 X8 Y8
G1 F1500 X97.978 Y94.584 E23.03793
M204 S2000
M205 X10 Y10
G0 F3000 X97.978 Y95.15
M204 S1000
M205 X8 Y8
G1 F1500 X99.725 Y96.896 E23.12008
M204 S2000
M205 X10 Y10
G0 F3000 X99.159 Y96.896
M204 S1000
M205 X8 Y8
G1 F1500 X97.978 Y95.716 E23.17561
M204 S2000
M205 X10 Y10
G0 F3000 X97.978 Y96.281
M204 S1000
M205 X8 Y8
G1 F1500 X98.594 Y96.896 E23.20456
G1 X98.664 Y96.966
M204 S2000
M205 X10 Y10
G1 F2400 E17.20456
;MESH:MiniMFD.Button.Center.stl(3)
G0 F3000 X101.828 Y90.905
G0 X101.986 Y89.391
G0 X104.345 Y89.086
G0 X105.431 Y89.25
M204 S1000
M205 X8 Y8
;TYPE:WALL-OUTER
G1 F2400 E23.20456
G1 F1333.3 X105.631 Y89.5 E23.21654
G1 F1500 X105.631 Y94.3 E23.37619
G1 X113.231 Y94.3 E23.62896
G1 X113.231 Y89.5 E23.78861
G1 F1327.4 X113.387 Y89.251 E23.79966
G1 F1195.2 X114.681 Y89.25 E23.85367
G1 F1200 X114.681 Y89 E23.86406
G1 X114.681 Y88.75 E23.87446
G1 F1195.2 X113.344 Y88.752 E23.93027
G1 F1327.4 X112.431 Y88.7 E23.96464
G1 F1500 X106.431 Y88.7 E24.1642
G1 F1333.3 X105.431 Y88.75 E24.20166
G1 F1200 X104.181 Y88.75 E24.25363
G1 X104.181 Y89.25 E24.27442
G1 X105.431 Y89.25 E24.32639
M204 S2000
M205 X10 Y10
G0 F3000 X105.556 Y89.406
G0 X105.631 Y89.1
M204 S1000
M205 X8 Y8
;TYPE:WALL-INNER
G1 F1500 X106.031 Y89.5 E24.3452
G1 X106.031 Y93.9 E24.49155
G1 X112.831 Y93.9 E24.71771
G1 X112.831 Y89.5 E24.86406
G1 X113.167 Y89.1 E24.88143
G1 X105.631 Y89.1 E25.13208
M204 S2000
M205 X10 Y10
G0 F3000 X106.431 Y89.5
M204 S1000
M205 X8 Y8
G1 F1500 X106.431 Y93.5 E25.26512
G1 X112.431 Y93.5 E25.46468
G1 X112.431 Y89.5 E25.59772
G1 X106.431 Y89.5 E25.79729
M204 S2000
M205 X10 Y10
G0 F3000 X106.811 Y89.88
M204 S1000
M205 X8 Y8
;TYPE:SKIN
G1 F1500 X106.811 Y93.12 E25.90505
G1 X112.051 Y93.12 E26.07933
G1 X112.051 Y91.5 E26.13321
G1 X112.051 Y89.88 E26.18709
G1 X106.811 Y89.88 E26.36138
M204 S2000
M205 X10 Y10
G0 F3000 X107.627 Y92.919
M204 S1000
M205 X8 Y8
G1 F1500 X107.01 Y92.302 E26.3904
M204 S2000
M205 X10 Y10
G0 F3000 X107.01 Y91.736
M204 S1000
M205 X8 Y8
G1 F1500 X108.192 Y92.919 E26.44602
M204 S2000
M205 X10 Y10
G0 F3000 X108.758 Y92.919
M204 S1000
M205 X8 Y8
G1 F1500 X107.01 Y91.17 E26.52826
M204 S2000
M205 X10 Y10
G0 F3000 X107.01 Y90.605
M204 S1000
M205 X8 Y8
G1 F1500 X109.324 Y92.919 E26.63711
M204 S2000
M205 X10 Y10
G0 F3000 X109.89 Y92.919
M204 S1000
M205 X8 Y8
G1 F1500 X107.05 Y90.079 E26.77069
M204 S2000
M205 X10 Y10
G0 F3000 X107.615 Y90.079
M204 S1000
M205 X8 Y8
G1 F1500 X110.455 Y92.919 E26.90428
M204 S2000
M205 X10 Y10
G0 F3000 X111.021 Y92.919
M204 S1000
M205 X8 Y8
G1 F1500 X108.181 Y90.079 E27.03786
M204 S2000
M205 X10 Y10
G0 F3000 X108.747 Y90.079
M204 S1000
M205 X8 Y8
G1 F1500 X111.587 Y92.919 E27.17145
M204 S2000
M205 X10 Y10
G0 F3000 X111.85 Y92.616
M204 S1000
M205 X8 Y8
G1 F1500 X109.313 Y90.079 E27.29078
M204 S2000
M205 X10 Y10
G0 F3000 X109.878 Y90.079
M204 S1000
M205 X8 Y8
G1 F1500 X111.85 Y92.051 E27.38354
M204 S2000
M205 X10 Y10
