;FLAVOR:Marlin
;TIME:15646
;Filament used: 13.166m
;Layer height: 0.2
;MINX:46.8
;MINY:46.8
;MINZ:0.2
;MAXX:175.2
;MAXY:175.2
;MAXZ:4
;Generated with Cura_SteamEngine 5.2.1
M140 S60
M105
M190 S60
M104 S200
M105
M109 S200
M82 ;absolute extrusion mode
G28 ;Home
G1 Z15.0 F1200 ;Move the platform down 15mm
;Prime the extruder
G92 E0
G1 F200 E3
G92 E0
G92 E0
G92 E0
G1 F2400 E-6
;LAYER_COUNT:20
;LAYER:0
M107
M204 S2000
M205 X10 Y10
G0 F3000 X47.789 Y47.704 Z0.2
M204 S1000
M205 X8 Y8
;TYPE:SKIRT
G1 F2400 E0
G1 X48.18 Y47.383 E0.01683
G1 X48.617 Y47.128 E0.03365
G1 X49.088 Y46.944 E0.05047
G1 X49.582 Y46.838 E0.06728
G1 X50.027 Y46.801 E0.08213
G1 X171.339 Y46.8 E4.11698
G1 X172.037 Y46.81 E4.1402
G1 X172.54 Y46.857 E4.157
G1 X173.03 Y46.983 E4.17383
G1 X173.494 Y47.185 E4.19066
G1 X173.92 Y47.457 E4.20747
G1 X174.298 Y47.792 E4.22427
G1 X174.618 Y48.183 E4.24108
G1 X174.873 Y48.62 E4.25791
G1 X175.056 Y49.091 E4.27471
G1 X175.163 Y49.585 E4.29152
G1 X175.199 Y50.24 E4.31334
G1 X175.2 Y171.304 E8.33995
G1 X175.191 Y172.031 E8.36413
G1 X175.145 Y172.534 E8.38093
G1 X175.02 Y173.024 E8.39775
G1 X174.819 Y173.488 E8.41457
G1 X174.548 Y173.915 E8.43139
G1 X174.213 Y174.294 E8.44821
G1 X173.823 Y174.615 E8.46501
G1 X173.387 Y174.871 E8.48183
G1 X172.916 Y175.054 E8.49863
G1 X172.422 Y175.162 E8.51545
G1 X171.76 Y175.199 E8.53751
G1 X50.666 Y175.2 E12.56511
G1 X49.968 Y175.191 E12.58833
G1 X49.464 Y175.144 E12.60516
G1 X48.974 Y175.019 E12.62198
G1 X48.51 Y174.818 E12.6388
G1 X48.084 Y174.547 E12.65559
G1 X47.705 Y174.212 E12.67242
G1 X47.384 Y173.821 E12.68924
G1 X47.129 Y173.385 E12.70604
G1 X46.945 Y172.914 E12.72286
G1 X46.838 Y172.42 E12.73967
G1 X46.801 Y171.967 E12.75479
G1 X46.8 Y50.631 E16.79044
G1 X46.809 Y49.966 E16.81256
G1 X46.856 Y49.462 E16.8294
G1 X46.982 Y48.973 E16.84619
G1 X47.183 Y48.509 E16.86301
G1 X47.454 Y48.082 E16.87983
G1 X47.789 Y47.704 E16.89663
M204 S2000
M205 X10 Y10
G1 F2400 E10.89663
;MESH:MiniMFD.Cap.stl
G0 F3000 X50.414 Y49.335
G0 X50.2 Y50.2
M204 S1000
M205 X8 Y8
;TYPE:WALL-OUTER
G1 F2400 E16.89663
G1 F1500 X50.2 Y171.8 E20.94106
G1 X171.8 Y171.8 E24.98549
G1 X171.8 Y50.2 E29.02993
G1 X111 Y50.2 E31.05214
G1 X50.2 Y50.2 E33.07436
M204 S2000
M205 X10 Y10
G0 F3000 X50.2 Y50.4
G0 X50.6 Y50.6
M204 S1000
M205 X8 Y8
;TYPE:WALL-INNER
G1 F1500 X50.6 Y171.4 E37.09218
G1 X171.4 Y171.4 E41.11001
G1 X171.4 Y50.6 E45.12783
G1 X111 Y50.6 E47.13674
G1 X50.6 Y50.6 E49.14566
M204 S2000
M205 X10 Y10
G0 F3000 X51 Y51
M204 S1000
M205 X8 Y8
G1 F1500 X51 Y171 E53.13687
G1 X171 Y171 E57.12809
G1 X171 Y51 E61.11931
G1 X111 Y51 E63.11491
G1 X51 Y51 E65.11052
M204 S2000
M205 X10 Y10
G0 F3000 X51.38 Y51.38
M204 S1000
M205 X8 Y8
;TYPE:SKIN
G1 F1500 X51.38 Y170.62 E69.07646
G1 X170.62 Y170.62 E73.0424
G1 X170.62 Y111 E75.02537
G1 X170.62 Y51.38 E77.00834
G1 X51.38 Y51.38 E80.97428
M204 S2000
M205 X10 Y10
G0 F3000 X170.419 Y52.191
M204 S1000
M205 X8 Y8
G1 F1500 X169.808 Y51.579 E81.00304
M204 S2000
M205 X10 Y10
G0 F3000 X169.242 Y51.579
M204 S1000
M205 X8 Y8
G1 F1500 X170.419 Y52.757 E81.05842
M204 S2000
M205 X10 Y10
G0 F3000 X170.419 Y53.322
M204 S1000
M205 X8 Y8
G1 F1500 X168.676 Y51.579 E81.14041
M204 S2000
M205 X10 Y10
G0 F3000 X168.111 Y51.579
M204 S1000
M205 X8 Y8
G1 F1500 X170.419 Y53.888 E81.24899
M204 S2000
M205 X10 Y10
G0 F3000 X170.419 Y54.454
M204 S1000
M205 X8 Y8
G1 F1500 X167.545 Y51.579 E81.3842
M204 S2000
M205 X10 Y10
G0 F3000 X166.979 Y51.579
M204 S1000
M205 X8 Y8
G1 F1500 X170.419 Y55.019 E81.54601
M204 S2000
M205 X10 Y10
G0 F3000 X170.419 Y55.585
M204 S1000
M205 X8 Y8
G1 F1500 X166.414 Y51.579 E81.73442
M204 S2000
M205 X10 Y10
G0 F3000 X165.848 Y51.579
M204 S1000
M205 X8 Y8
G1 F1500 X170.419 Y56.151 E81.94945
M204 S2000
M205 X10 Y10
G0 F3000 X170.419 Y56.717
M204 S1000
M205 X8 Y8
G1 F1500 X165.282 Y51.579 E82.1911
M204 S2000
M205 X10 Y10
G0 F3000 X164.716 Y51.579
M204 S1000
M205 X8 Y8
G1 F1500 X170.419 Y57.282 E82.45935
M204 S2000
M205 X10 Y10
G0 F3000 X170.419 Y57.848
M204 S1000
M205 X8 Y8
G1 F1500 X164.151 Y51.579 E82.7542
M204 S2000
M205 X10 Y10
G0 F3000 X163.585 Y51.579
M204 S1000
M205 X8 Y8
G1 F1500 X170.419 Y58.414 E83.07567
M204 S2000
M205 X10 Y10
G0 F3000 X170.419 Y58.979
M204 S1000
M205 X8 Y8
G1 F1500 X163.019 Y51.579 E83.42375
M204 S2000
M205 X10 Y10
G0 F3000 X162.454 Y51.579
M204 S1000
M205 X8 Y8
G1 F1500 X170.419 Y59.545 E83.79842
M204 S2000
M205 X10 Y10
G0 F3000 X170.419 Y60.111
M204 S1000
M205 X8 Y8
G1 F1500 X161.888 Y51.579 E84.19972
M204 S2000
M205 X10 Y10
G0 F3000 X161.322 Y51.579
M204 S1000
M205 X8 Y8
G1 F1500 X170.419 Y60.676 E84.62761
M204 S2000
M205 X10 Y10
G0 F3000 X170.419 Y61.242
M204 S1000
M205 X8 Y8
G1 F1500 X160.757 Y51.579 E85.08211
M204 S2000
M205 X10 Y10
G0 F3000 X160.191 Y51.579
M204 S1000
M205 X8 Y8
G1 F1500 X170.419 Y61.808 E85.56322
M204 S2000
M205 X10 Y10
G0 F3000 X170.419 Y62.373
M204 S1000
M205 X8 Y8
G1 F1500 X159.625 Y51.579 E86.07094
M204 S2000
M205 X10 Y10
G0 F3000 X159.06 Y51.579
M204 S1000
M205 X8 Y8
G1 F1500 X170.419 Y62.939 E86.60526
M204 S2000
M205 X10 Y10
G0 F3000 X170.419 Y63.505
M204 S1000
M205 X8 Y8
G1 F1500 X158.494 Y51.579 E87.16619
M204 S2000
M205 X10 Y10
G0 F3000 X157.928 Y51.579
M204 S1000
M205 X8 Y8
G1 F1500 X170.419 Y64.07 E87.75373
M204 S2000
M205 X10 Y10
G0 F3000 X170.419 Y64.636
M204 S1000
M205 X8 Y8
G1 F1500 X157.363 Y51.579 E88.36787
M204 S2000
M205 X10 Y10
G0 F3000 X156.797 Y51.579
M204 S1000
M205 X8 Y8
G1 F1500 X170.419 Y65.202 E89.00863
M204 S2000
M205 X10 Y10
G0 F3000 X170.419 Y65.768
M204 S1000
M205 X8 Y8
G1 F1500 X156.231 Y51.579 E89.67601
M204 S2000
M205 X10 Y10
G0 F3000 X155.666 Y51.579
M204 S1000
M205 X8 Y8
G1 F1500 X170.419 Y66.333 E90.36997
M204 S2000
M205 X10 Y10
G0 F3000 X170.419 Y66.899
M204 S1000
M205 X8 Y8
G1 F1500 X155.1 Y51.579 E91.09056
M204 S2000
M205 X10 Y10
G0 F3000 X154.534 Y51.579
M204 S1000
M205 X8 Y8
G1 F1500 X170.419 Y67.465 E91.83776
M204 S2000
M205 X10 Y10
G0 F3000 X170.419 Y68.03
M204 S1000
M205 X8 Y8
G1 F1500 X153.968 Y51.579 E92.61157
M204 S2000
M205 X10 Y10
G0 F3000 X153.403 Y51.579
M204 S1000
M205 X8 Y8
G1 F1500 X170.419 Y68.596 E93.41197
M204 S2000
M205 X10 Y10
G0 F3000 X170.419 Y69.162
M204 S1000
M205 X8 Y8
G1 F1500 X152.837 Y51.579 E94.239
M204 S2000
M205 X10 Y10
G0 F3000 X152.271 Y51.579
M204 S1000
M205 X8 Y8
G1 F1500 X170.419 Y69.727 E95.09262
M204 S2000
M205 X10 Y10
G0 F3000 X170.419 Y70.293
M204 S1000
M205 X8 Y8
G1 F1500 X151.706 Y51.579 E95.97285
M204 S2000
M205 X10 Y10
G0 F3000 X151.14 Y51.579
M204 S1000
M205 X8 Y8
G1 F1500 X170.419 Y70.859 E96.8797
M204 S2000
M205 X10 Y10
G0 F3000 X170.419 Y71.424
M204 S1000
M205 X8 Y8
G1 F1500 X150.574 Y51.579 E97.81315
M204 S2000
M205 X10 Y10
G0 F3000 X150.009 Y51.579
M204 S1000
M205 X8 Y8
G1 F1500 X170.419 Y71.99 E98.77319
M204 S2000
M205 X10 Y10
G0 F3000 X170.419 Y72.556
M204 S1000
M205 X8 Y8
G1 F1500 X149.443 Y51.579 E99.75986
M204 S2000
M205 X10 Y10
G0 F3000 X148.877 Y51.579
M204 S1000
M205 X8 Y8
G1 F1500 X170.419 Y73.121 E100.77313
M204 S2000
M205 X10 Y10
G0 F3000 X170.419 Y73.687
M204 S1000
M205 X8 Y8
G1 F1500 X148.312 Y51.579 E101.813
M204 S2000
M205 X10 Y10
G0 F3000 X147.746 Y51.579
M204 S1000
M205 X8 Y8
G1 F1500 X170.419 Y74.253 E102.87949
M204 S2000
M205 X10 Y10
G0 F3000 X170.419 Y74.818
M204 S1000
M205 X8 Y8
G1 F1500 X147.18 Y51.579 E103.97258
M204 S2000
M205 X10 Y10
G0 F3000 X146.615 Y51.579
M204 S1000
M205 X8 Y8
G1 F1500 X170.419 Y75.384 E105.09228
M204 S2000
M205 X10 Y10
G0 F3000 X170.419 Y75.95
M204 S1000
M205 X8 Y8
G1 F1500 X146.049 Y51.579 E106.23859
M204 S2000
M205 X10 Y10
G0 F3000 X145.483 Y51.579
M204 S1000
M205 X8 Y8
G1 F1500 X170.419 Y76.516 E107.41153
M204 S2000
M205 X10 Y10
G0 F3000 X170.419 Y77.081
M204 S1000
M205 X8 Y8
G1 F1500 X144.917 Y51.579 E108.61106
M204 S2000
M205 X10 Y10
G0 F3000 X144.352 Y51.579
M204 S1000
M205 X8 Y8
G1 F1500 X170.419 Y77.647 E109.8372
M204 S2000
M205 X10 Y10
G0 F3000 X170.419 Y78.213
M204 S1000
M205 X8 Y8
G1 F1500 X143.786 Y51.579 E111.08996
M204 S2000
M205 X10 Y10
G0 F3000 X143.22 Y51.579
M204 S1000
M205 X8 Y8
G1 F1500 X170.419 Y78.778 E112.36931
M204 S2000
M205 X10 Y10
G0 F3000 X170.419 Y79.344
M204 S1000
M205 X8 Y8
G1 F1500 X142.655 Y51.579 E113.67527
M204 S2000
M205 X10 Y10
G0 F3000 X142.089 Y51.579
M204 S1000
M205 X8 Y8
G1 F1500 X170.419 Y79.91 E115.00785
M204 S2000
M205 X10 Y10
G0 F3000 X170.419 Y80.475
M204 S1000
M205 X8 Y8
G1 F1500 X141.523 Y51.579 E116.36703
M204 S2000
M205 X10 Y10
G0 F3000 X140.958 Y51.579
M204 S1000
M205 X8 Y8
G1 F1500 X170.419 Y81.041 E117.75281
M204 S2000
M205 X10 Y10
G0 F3000 X170.419 Y81.607
M204 S1000
M205 X8 Y8
G1 F1500 X140.392 Y51.579 E119.16521
M204 S2000
M205 X10 Y10
G0 F3000 X139.826 Y51.579
M204 S1000
M205 X8 Y8
G1 F1500 X170.419 Y82.172 E120.60421
M204 S2000
M205 X10 Y10
G0 F3000 X170.419 Y82.738
M204 S1000
M205 X8 Y8
G1 F1500 X139.261 Y51.579 E122.06981
M204 S2000
M205 X10 Y10
G0 F3000 X138.695 Y51.579
M204 S1000
M205 X8 Y8
G1 F1500 X170.419 Y83.304 E123.56203
M204 S2000
M205 X10 Y10
G0 F3000 X170.419 Y83.869
M204 S1000
M205 X8 Y8
G1 F1500 X138.129 Y51.579 E125.08086
M204 S2000
M205 X10 Y10
G0 F3000 X137.564 Y51.579
M204 S1000
M205 X8 Y8
G1 F1500 X170.419 Y84.435 E126.62628
M204 S2000
M205 X10 Y10
G0 F3000 X170.419 Y85.001
M204 S1000
M205 X8 Y8
G1 F1500 X136.998 Y51.579 E128.19832
M204 S2000
M205 X10 Y10
G0 F3000 X136.432 Y51.579
M204 S1000
M205 X8 Y8
G1 F1500 X170.419 Y85.566 E129.79697
M204 S2000
M205 X10 Y10
G0 F3000 X170.419 Y86.132
M204 S1000
M205 X8 Y8
G1 F1500 X135.867 Y51.579 E131.42221
M204 S2000
M205 X10 Y10
G0 F3000 X135.301 Y51.579
M204 S1000
M205 X8 Y8
G1 F1500 X170.419 Y86.698 E133.07408
M204 S2000
M205 X10 Y10
G0 F3000 X170.419 Y87.264
M204 S1000
M205 X8 Y8
G1 F1500 X134.735 Y51.579 E134.75257
M204 S2000
M205 X10 Y10
G0 F3000 X134.169 Y51.579
M204 S1000
M205 X8 Y8
G1 F1500 X170.419 Y87.829 E136.45766
M204 S2000
M205 X10 Y10
G0 F3000 X170.419 Y88.395
M204 S1000
M205 X8 Y8
G1 F1500 X133.604 Y51.579 E138.18934
M204 S2000
M205 X10 Y10
G0 F3000 X133.038 Y51.579
M204 S1000
M205 X8 Y8
G1 F1500 X170.419 Y88.961 E139.94765
M204 S2000
M205 X10 Y10
G0 F3000 X170.419 Y89.526
M204 S1000
M205 X8 Y8
G1 F1500 X132.472 Y51.579 E141.73257
M204 S2000
M205 X10 Y10
G0 F3000 X131.907 Y51.579
M204 S1000
M205 X8 Y8
G1 F1500 X170.419 Y90.092 E143.54408
M204 S2000
M205 X10 Y10
G0 F3000 X170.419 Y90.658
M204 S1000
M205 X8 Y8
G1 F1500 X131.341 Y51.579 E145.38221
M204 S2000
M205 X10 Y10
G0 F3000 X130.775 Y51.579
M204 S1000
M205 X8 Y8
G1 F1500 X170.419 Y91.223 E147.24694
M204 S2000
M205 X10 Y10
G0 F3000 X170.419 Y91.789
M204 S1000
M205 X8 Y8
G1 F1500 X130.21 Y51.579 E149.13827
M204 S2000
M205 X10 Y10
G0 F3000 X129.644 Y51.579
M204 S1000
M205 X8 Y8
G1 F1500 X170.419 Y92.355 E151.05623
M204 S2000
M205 X10 Y10
G0 F3000 X170.419 Y92.92
M204 S1000
M205 X8 Y8
G1 F1500 X129.078 Y51.579 E153.00078
M204 S2000
M205 X10 Y10
G0 F3000 X128.513 Y51.579
M204 S1000
M205 X8 Y8
G1 F1500 X170.419 Y93.486 E154.97193
M204 S2000
M205 X10 Y10
G0 F3000 X170.419 Y94.052
M204 S1000
M205 X8 Y8
G1 F1500 X127.947 Y51.579 E156.96971
M204 S2000
M205 X10 Y10
G0 F3000 X127.381 Y51.579
M204 S1000
M205 X8 Y8
G1 F1500 X170.419 Y94.617 E158.99409
M204 S2000
M205 X10 Y10
G0 F3000 X170.419 Y95.183
M204 S1000
M205 X8 Y8
G1 F1500 X126.816 Y51.579 E161.04506
M204 S2000
M205 X10 Y10
G0 F3000 X126.25 Y51.579
M204 S1000
M205 X8 Y8
G1 F1500 X170.419 Y95.749 E163.12266
M204 S2000
M205 X10 Y10
G0 F3000 X170.419 Y96.315
M204 S1000
M205 X8 Y8
G1 F1500 X125.684 Y51.579 E165.22688
M204 S2000
M205 X10 Y10
G0 F3000 X125.119 Y51.579
M204 S1000
M205 X8 Y8
G1 F1500 X170.419 Y96.88 E167.35768
M204 S2000
M205 X10 Y10
G0 F3000 X170.419 Y97.446
M204 S1000
M205 X8 Y8
G1 F1500 X124.553 Y51.579 E169.5151
M204 S2000
M205 X10 Y10
G0 F3000 X123.987 Y51.579
M204 S1000
M205 X8 Y8
G1 F1500 X170.419 Y98.012 E171.69914
M204 S2000
M205 X10 Y10
G0 F3000 X170.419 Y98.577
M204 S1000
M205 X8 Y8
G1 F1500 X123.421 Y51.579 E173.90978
M204 S2000
M205 X10 Y10
G0 F3000 X122.856 Y51.579
M204 S1000
M205 X8 Y8
G1 F1500 X170.419 Y99.143 E176.14702
M204 S2000
M205 X10 Y10
G0 F3000 X170.419 Y99.709
M204 S1000
M205 X8 Y8
G1 F1500 X122.29 Y51.579 E178.41088
M204 S2000
M205 X10 Y10
G0 F3000 X121.724 Y51.579
M204 S1000
M205 X8 Y8
G1 F1500 X170.419 Y100.274 E180.70135
M204 S2000
M205 X10 Y10
G0 F3000 X170.419 Y100.84
M204 S1000
M205 X8 Y8
G1 F1500 X121.159 Y51.579 E183.01841
M204 S2000
M205 X10 Y10
G0 F3000 X120.593 Y51.579
M204 S1000
M205 X8 Y8
G1 F1500 X170.419 Y101.406 E185.3621
M204 S2000
M205 X10 Y10
G0 F3000 X170.419 Y101.971
M204 S1000
M205 X8 Y8
G1 F1500 X120.027 Y51.579 E187.73238
M204 S2000
M205 X10 Y10
G0 F3000 X119.462 Y51.579
M204 S1000
M205 X8 Y8
G1 F1500 X170.419 Y102.537 E190.12927
M204 S2000
M205 X10 Y10
G0 F3000 X170.419 Y103.103
M204 S1000
M205 X8 Y8
G1 F1500 X118.896 Y51.579 E192.55277
M204 S2000
M205 X10 Y10
G0 F3000 X118.33 Y51.579
M204 S1000
M205 X8 Y8
G1 F1500 X170.419 Y103.668 E195.00288
M204 S2000
M205 X10 Y10
G0 F3000 X170.419 Y104.234
M204 S1000
M205 X8 Y8
G1 F1500 X117.765 Y51.579 E197.47959
M204 S2000
M205 X10 Y10
G0 F3000 X117.199 Y51.579
M204 S1000
M205 X8 Y8
G1 F1500 X170.419 Y104.8 E199.98292
M204 S2000
M205 X10 Y10
G0 F3000 X170.419 Y105.365
M204 S1000
M205 X8 Y8
G1 F1500 X116.633 Y51.579 E202.51285
M204 S2000
M205 X10 Y10
G0 F3000 X116.068 Y51.579
M204 S1000
M205 X8 Y8
G1 F1500 X170.419 Y105.931 E205.06937
M204 S2000
M205 X10 Y10
G0 F3000 X170.419 Y106.497
M204 S1000
M205 X8 Y8
G1 F1500 X115.502 Y51.579 E207.65252
M204 S2000
M205 X10 Y10
G0 F3000 X114.936 Y51.579
M204 S1000
M205 X8 Y8
G1 F1500 X170.419 Y107.063 E210.2623
M204 S2000
M205 X10 Y10
G0 F3000 X170.419 Y107.628
M204 S1000
M205 X8 Y8
G1 F1500 X114.37 Y51.579 E212.89867
M204 S2000
M205 X10 Y10
G0 F3000 X113.805 Y51.579
M204 S1000
M205 X8 Y8
G1 F1500 X170.419 Y108.194 E215.56164
M204 S2000
M205 X10 Y10
G0 F3000 X170.419 Y108.76
M204 S1000
M205 X8 Y8
G1 F1500 X113.239 Y51.579 E218.25124
M204 S2000
M205 X10 Y10
G0 F3000 X112.673 Y51.579
M204 S1000
M205 X8 Y8
G1 F1500 X170.419 Y109.325 E220.96743
M204 S2000
M205 X10 Y10
G0 F3000 X170.419 Y109.891
M204 S1000
M205 X8 Y8
G1 F1500 X112.108 Y51.579 E223.71023
M204 S2000
M205 X10 Y10
G0 F3000 X111.542 Y51.579
M204 S1000
M205 X8 Y8
G1 F1500 X170.419 Y110.457 E226.47964
M204 S2000
M205 X10 Y10
G0 F3000 X170.419 Y111.022
M204 S1000
M205 X8 Y8
G1 F1500 X110.976 Y51.579 E229.27566
M204 S2000
M205 X10 Y10
G0 F3000 X110.411 Y51.579
M204 S1000
M205 X8 Y8
G1 F1500 X170.419 Y111.588 E232.09828
M204 S2000
M205 X10 Y10
G0 F3000 X170.419 Y112.154
M204 S1000
M205 X8 Y8
G1 F1500 X109.845 Y51.579 E234.94752
M204 S2000
M205 X10 Y10
G0 F3000 X109.279 Y51.579
M204 S1000
M205 X8 Y8
G1 F1500 X170.419 Y112.719 E237.82335
M204 S2000
M205 X10 Y10
G0 F3000 X170.419 Y113.285
M204 S1000
M205 X8 Y8
G1 F1500 X108.714 Y51.579 E240.72579
M204 S2000
M205 X10 Y10
G0 F3000 X108.148 Y51.579
M204 S1000
M205 X8 Y8
G1 F1500 X170.419 Y113.851 E243.65485
M204 S2000
M205 X10 Y10
G0 F3000 X170.419 Y114.416
M204 S1000
M205 X8 Y8
G1 F1500 X107.582 Y51.579 E246.61051
M204 S2000
M205 X10 Y10
G0 F3000 X107.017 Y51.579
M204 S1000
M205 X8 Y8
G1 F1500 X170.419 Y114.982 E249.59277
M204 S2000
M205 X10 Y10
G0 F3000 X170.419 Y115.548
M204 S1000
M205 X8 Y8
G1 F1500 X106.451 Y51.579 E252.60165
M204 S2000
M205 X10 Y10
G0 F3000 X105.885 Y51.579
M204 S1000
M205 X8 Y8
G1 F1500 X170.419 Y116.114 E255.63716
M204 S2000
M205 X10 Y10
G0 F3000 X170.419 Y116.679
M204 S1000
M205 X8 Y8
G1 F1500 X105.32 Y51.579 E258.69924
M204 S2000
M205 X10 Y10
G0 F3000 X104.754 Y51.579
M204 S1000
M205 X8 Y8
G1 F1500 X170.419 Y117.245 E261.78794
M204 S2000
M205 X10 Y10
G0 F3000 X170.419 Y117.811
M204 S1000
M205 X8 Y8
G1 F1500 X104.188 Y51.579 E264.90327
M204 S2000
M205 X10 Y10
G0 F3000 X103.622 Y51.579
M204 S1000
M205 X8 Y8
G1 F1500 X170.419 Y118.376 E268.0452
M204 S2000
M205 X10 Y10
G0 F3000 X170.419 Y118.942
M204 S1000
M205 X8 Y8
G1 F1500 X103.057 Y51.579 E271.21372
M204 S2000
M205 X10 Y10
G0 F3000 X102.491 Y51.579
M204 S1000
M205 X8 Y8
G1 F1500 X170.419 Y119.508 E274.40887
M204 S2000
M205 X10 Y10
G0 F3000 X170.419 Y120.073
M204 S1000
M205 X8 Y8
G1 F1500 X101.925 Y51.579 E277.63062
M204 S2000
