;FLAVOR:Marlin
;TIME:12764
;Filament used: 11.3948m
;Layer height: 0.2
;MINX:45.552
;MINY:40.802
;MINZ:0.2
;MAXX:176.448
;MAXY:181.198
;MAXZ:10
;Generated with Cura_SteamEngine 5.2.1
M140 S60
M105
M190 S60
M104 S200
M105
M109 S200
M82 ;absolute extrusion mode
G28 ;Home
G1 Z15.0 F1200 ;Move the platform down 15mm
;Prime the extruder
G92 E0
G1 F200 E3
G92 E0
G92 E0
G92 E0
G1 F2400 E-6
;LAYER_COUNT:50
;LAYER:0
M107
M204 S2000
M205 X10 Y10
G0 F3000 X46.952 Y42.448 Z0.2
M204 S1000
M205 X8 Y8
;TYPE:SKIRT
G1 F2400 E0
G1 X47.554 Y41.925 E0.02652
G1 X48.291 Y41.418 E0.05628
G1 X49.063 Y41.098 E0.08407
G1 X49.897 Y40.884 E0.11271
G1 X50.52 Y40.821 E0.13354
G1 X51.564 Y40.802 E0.16827
G1 X170.687 Y40.802 E4.13031
G1 X171.385 Y40.812 E4.15353
G1 X171.889 Y40.86 E4.17037
G1 X172.382 Y40.946 E4.18701
G1 X173.05 Y41.139 E4.21014
G1 X173.407 Y41.286 E4.22298
G1 X174.132 Y41.672 E4.2503
G1 X174.843 Y42.244 E4.28065
G1 X175.339 Y42.818 E4.30588
G1 X175.617 Y43.212 E4.32192
G1 X175.955 Y43.824 E4.34517
G1 X176.107 Y44.188 E4.35829
G1 X176.362 Y45.054 E4.38832
G1 X176.437 Y45.842 E4.41465
G1 X176.448 Y46.599 E4.43983
G1 X176.448 Y175.438 E8.72503
G1 X176.434 Y176.379 E8.75633
G1 X176.306 Y177.127 E8.78157
G1 X176.154 Y177.722 E8.802
G1 X175.786 Y178.5 E8.83062
G1 X175.535 Y178.939 E8.84744
G1 X174.962 Y179.618 E8.87699
G1 X174.418 Y180.099 E8.90114
G1 X174.024 Y180.375 E8.91714
G1 X173.416 Y180.709 E8.94022
G1 X173.026 Y180.871 E8.95426
G1 X172.297 Y181.077 E8.97946
G1 X171.405 Y181.186 E9.00935
G1 X170.633 Y181.198 E9.03503
G1 X51.312 Y181.198 E13.00366
G1 X50.617 Y181.188 E13.02678
G1 X50.116 Y181.141 E13.04351
G1 X49.62 Y181.055 E13.06026
G1 X48.93 Y180.853 E13.08417
G1 X48.565 Y180.7 E13.09733
G1 X47.961 Y180.366 E13.12029
G1 X47.59 Y180.105 E13.13538
G1 X47 Y179.602 E13.16116
G1 X46.468 Y178.908 E13.19025
G1 X46.166 Y178.405 E13.20976
G1 X45.94 Y177.953 E13.22657
G1 X45.708 Y177.225 E13.25198
G1 X45.58 Y176.626 E13.27236
G1 X45.552 Y175.13 E13.32212
G1 X45.552 Y46.562 E17.59831
G1 X45.562 Y45.87 E17.62133
G1 X45.692 Y44.885 E17.65437
G1 X45.888 Y44.202 E17.67801
G1 X46.04 Y43.834 E17.69125
G1 X46.431 Y43.104 E17.71879
G1 X46.952 Y42.448 E17.74666
M204 S2000
M205 X10 Y10
G1 F2400 E11.74666
;MESH:MFD.v2-Cover.stl
G0 F3000 X48.797 Y44.204
G0 X49.525 Y45.007
G1 F2400 E17.74666
G0 F3000 X49.031 Y45.474
M204 S1000
M205 X8 Y8
;TYPE:WALL-OUTER
G1 F1500 X48.952 Y45.921 E17.76175
G1 X48.952 Y176.086 E22.09106
G1 X48.985 Y176.346 E22.09978
G1 X49.089 Y176.686 E22.1116
G1 X49.363 Y177.144 E22.12935
G1 X49.541 Y177.331 E22.13794
G1 X49.904 Y177.588 E22.15273
G1 X50.222 Y177.719 E22.16417
G1 X50.671 Y177.798 E22.17934
G1 X171.328 Y177.798 E26.1924
G1 X171.776 Y177.719 E26.20753
G1 X172.096 Y177.588 E26.21903
G1 X172.46 Y177.33 E26.23387
G1 X172.742 Y177.003 E26.24824
G1 X172.972 Y176.518 E26.26609
G1 X173.048 Y176.079 E26.28091
G1 X173.048 Y172.656 E26.39476
G1 X173.048 Y45.918 E30.61008
G1 X172.969 Y45.474 E30.62508
G1 X172.835 Y45.15 E30.63674
G1 X172.581 Y44.791 E30.65137
G1 X172.391 Y44.61 E30.6601
G1 X172.097 Y44.413 E30.67187
G1 X171.777 Y44.281 E30.68338
G1 X171.328 Y44.202 E30.69854
G1 X50.667 Y44.202 E34.71174
G1 X50.403 Y44.235 E34.72059
G1 X50.061 Y44.34 E34.73249
G1 X49.753 Y44.504 E34.7441
G1 X49.358 Y44.861 E34.76181
G1 X49.163 Y45.154 E34.77351
G1 X49.031 Y45.474 E34.78503
M204 S2000
M205 X10 Y10
G0 F3000 X48.997 Y45.671
G0 X49.518 Y45.343
M204 S1000
M205 X8 Y8
;TYPE:WALL-INNER
G1 F1500 X49.417 Y45.586 E34.79378
G1 X49.352 Y45.956 E34.80627
G1 X49.352 Y176.061 E39.13358
G1 X49.457 Y176.522 E39.14931
G1 X49.683 Y176.9 E39.16396
G1 X50.098 Y177.235 E39.18169
G1 X50.334 Y177.332 E39.19018
G1 X50.705 Y177.398 E39.20271
G1 X171.293 Y177.398 E43.21349
G1 X171.664 Y177.333 E43.22602
G1 X171.902 Y177.235 E43.23458
G1 X172.189 Y177.032 E43.24627
G1 X172.404 Y176.783 E43.25721
G1 X172.587 Y176.396 E43.27145
G1 X172.648 Y176.045 E43.2833
G1 X172.648 Y172.656 E43.39602
G1 X172.648 Y45.954 E47.61014
G1 X172.583 Y45.586 E47.62257
G1 X172.483 Y45.345 E47.63125
G1 X172.277 Y45.054 E47.64311
G1 X171.907 Y44.767 E47.65868
G1 X171.665 Y44.667 E47.66739
G1 X171.294 Y44.602 E47.67992
G1 X50.691 Y44.602 E51.69119
G1 X50.215 Y44.711 E51.70743
G1 X49.985 Y44.834 E51.71611
G1 X49.663 Y45.125 E51.73054
G1 X49.518 Y45.343 E51.73925
M204 S2000
M205 X10 Y10
G0 F3000 X49.752 Y45.99
M204 S1000
M205 X8 Y8
G1 F1500 X49.752 Y176.037 E56.06463
G1 X49.825 Y176.359 E56.07561
G1 X50.003 Y176.656 E56.08713
G1 X50.293 Y176.883 E56.09938
G1 X50.74 Y176.998 E56.11473
G1 X171.259 Y176.998 E60.12321
G1 X171.553 Y176.946 E60.13314
G1 X171.918 Y176.733 E60.14719
G1 X172.065 Y176.563 E60.15467
G1 X172.202 Y176.274 E60.16531
G1 X172.248 Y176.011 E60.17419
G1 X172.248 Y172.656 E60.28577
G1 X172.248 Y45.989 E64.49874
G1 X172.13 Y45.539 E64.51421
G1 X171.973 Y45.317 E64.52325
G1 X171.718 Y45.122 E64.53393
G1 X171.259 Y45.002 E64.54971
G1 X50.716 Y45.002 E68.55899
G1 X50.37 Y45.082 E68.5708
G1 X50.217 Y45.164 E68.57657
G1 X49.969 Y45.388 E68.58769
G1 X49.804 Y45.698 E68.59937
G1 X49.752 Y45.99 E68.60923
M204 S2000
M205 X10 Y10
G0 F3000 X55.6 Y51.608
G0 X56.358 Y51.608
M204 S1000
M205 X8 Y8
;TYPE:WALL-OUTER
G1 F1500 X56.465 Y51.552 E68.61325
G1 X65.54 Y51.553 E68.91508
G1 X65.661 Y51.629 E68.91984
G1 X65.696 Y51.706 E68.92265
G1 X65.699 Y70.278 E69.54036
G1 X65.671 Y70.354 E69.54305
G1 X65.531 Y70.448 E69.54866
G1 X56.482 Y70.45 E69.84963
G1 X56.384 Y70.414 E69.8531
G1 X56.304 Y70.292 E69.85795
G1 X56.304 Y51.708 E70.47606
G1 X56.358 Y51.608 E70.47984
M204 S2000
M205 X10 Y10
G0 F3000 X56.465 Y51.552
G0 X56.545 Y51.552
G0 X56.545 Y50.85
G0 X55.672 Y50.922
G0 X55.672 Y71.078
G0 X56.154 Y70.741
M204 S1000
M205 X8 Y8
;TYPE:WALL-INNER
G1 F1500 X56.005 Y70.591 E70.48687
G1 X55.912 Y70.374 E70.49473
G1 X55.9 Y70.25 E70.49887
G1 X55.9 Y51.663 E71.11708
G1 X55.949 Y51.511 E71.12239
G1 X56.075 Y51.325 E71.12986
G1 X56.261 Y51.199 E71.13733
G1 X56.422 Y51.15 E71.14293
G1 X65.593 Y51.15 E71.44796
G1 X65.831 Y51.249 E71.45653
G1 X65.981 Y51.389 E71.46336
G1 X66.097 Y51.687 E71.47399
G1 X66.1 Y70.28 E72.0924
G1 X66.013 Y70.562 E72.10221
G1 X65.808 Y70.766 E72.11183
G1 X65.565 Y70.85 E72.12038
G1 X56.447 Y70.848 E72.42365
G1 X56.154 Y70.741 E72.43402
M204 S2000
M205 X10 Y10
G0 F3000 X56.154 Y71.15
G0 X66.328 Y71.078
G0 X70.1 Y70.896
G0 X70.829 Y70.896
M204 S1000
M205 X8 Y8
;TYPE:WALL-OUTER
G1 F1500 X70.969 Y70.802 E72.43963
G1 X151.084 Y70.802 E75.10427
G1 X151.196 Y70.955 E75.11057
G1 X151.199 Y151.028 E77.77381
G1 X151.171 Y151.104 E77.77651
G1 X151.031 Y151.198 E77.78212
G1 X130.625 Y151.2 E78.46082
G1 X70.916 Y151.198 E80.44675
G1 X70.804 Y151.045 E80.45306
G1 X70.801 Y70.972 E83.1163
G1 X70.829 Y70.896 E83.11899
M204 S2000
M205 X10 Y10
G0 F3000 X70.969 Y70.802
G0 X71.001 Y70.802
G0 X70.487 Y70.688
M204 S1000
M205 X8 Y8
;TYPE:WALL-INNER
G1 F1500 X70.692 Y70.484 E83.12861
G1 X70.935 Y70.4 E83.13716
G1 X151.064 Y70.4 E85.80226
G1 X151.308 Y70.484 E85.81085
G1 X151.513 Y70.688 E85.82046
G1 X151.6 Y70.97 E85.83028
G1 X151.6 Y151.03 E88.49309
G1 X151.513 Y151.312 E88.5029
G1 X151.308 Y151.516 E88.51252
G1 X151.065 Y151.6 E88.52107
G1 X130.625 Y151.6 E89.20091
G1 X70.935 Y151.6 E91.18621
G1 X70.692 Y151.516 E91.19476
G1 X70.487 Y151.312 E91.20438
G1 X70.4 Y151.03 E91.21419
G1 X70.4 Y70.97 E93.877
G1 X70.487 Y70.688 E93.88682
M204 S2000
M205 X10 Y10
G0 F3000 X70.036 Y70.732
M204 S1000
M205 X8 Y8
G1 F1500 X70.145 Y70.48 E93.89595
G1 X70.305 Y70.28 E93.90447
G1 X70.487 Y70.141 E93.91208
G1 X70.888 Y70 E93.92622
G1 X151.111 Y70 E96.59445
G1 X151.513 Y70.14 E96.60861
G1 X151.695 Y70.28 E96.61624
G1 X151.855 Y70.48 E96.62476
G1 X151.964 Y70.732 E96.63389
G1 X151.999 Y70.951 E96.64127
G1 X151.999 Y151.049 E99.30534
G1 X151.964 Y151.268 E99.31272
G1 X151.855 Y151.52 E99.32185
G1 X151.696 Y151.72 E99.33035
G1 X151.513 Y151.86 E99.33801
G1 X151.112 Y152 E99.35214
G1 X130.625 Y152 E100.03354
G1 X70.888 Y152 E102.0204
G1 X70.487 Y151.859 E102.03454
G1 X70.304 Y151.719 E102.0422
G1 X70.145 Y151.52 E102.05067
G1 X70.036 Y151.268 E102.0598
G1 X70.001 Y151.049 E102.06718
G1 X70.001 Y70.951 E104.73125
G1 X70.036 Y70.732 E104.73863
M204 S2000
M205 X10 Y10
G0 F3000 X80.672 Y55.672
G0 X81.379 Y56.339
M204 S1000
M205 X8 Y8
;TYPE:WALL-OUTER
G1 F1500 X81.473 Y56.301 E104.742
G1 X90.535 Y56.302 E105.0434
G1 X90.622 Y56.34 E105.04656
G1 X90.7 Y56.439 E105.05075
G1 X90.7 Y65.518 E105.35272
G1 X90.664 Y65.616 E105.35619
G1 X90.535 Y65.698 E105.36128
G1 X81.458 Y65.7 E105.66318
G1 X81.394 Y65.67 E105.66553
G1 X81.302 Y65.531 E105.67108
G1 X81.3 Y56.48 E105.97211
G1 X81.379 Y56.339 E105.97749
M204 S2000
M205 X10 Y10
G0 F3000 X81.473 Y56.301
G0 X81.572 Y56.301
G0 X81.572 Y55.6
G0 X80.672 Y55.672
G0 X80.672 Y66.328
G0 X81.182 Y66.01
M204 S1000
M205 X8 Y8
;TYPE:WALL-INNER
G1 F1500 X80.983 Y65.805 E105.98699
G1 X80.9 Y65.563 E105.9955
G1 X80.902 Y56.44 E106.29893
G1 X81.001 Y56.165 E106.30865
G1 X81.139 Y56.019 E106.31534
G1 X81.423 Y55.9 E106.32558
G1 X90.572 Y55.9 E106.62987
G1 X90.798 Y55.978 E106.63783
G1 X90.952 Y56.104 E106.64444
G1 X91.05 Y56.259 E106.65054
G1 X91.1 Y56.5 E106.65873
G1 X91.098 Y65.553 E106.95983
G1 X90.991 Y65.847 E106.97024
G1 X90.847 Y65.99 E106.97699
G1 X90.572 Y66.1 E106.98684
G1 X81.382 Y66.1 E107.2925
G1 X81.182 Y66.01 E107.2998
M204 S2000
M205 X10 Y10
G0 F3000 X81.182 Y66.4
G0 X80.672 Y55.672
G0 X81.115 Y55.576
M204 S1000
M205 X8 Y8
G1 F1500 X81.407 Y55.5 E107.30983
G1 X90.598 Y55.5 E107.61553
G1 X90.997 Y55.631 E107.62949
G1 X91.253 Y55.841 E107.64051
G1 X91.417 Y56.098 E107.65065
G1 X91.5 Y56.5 E107.6643
G1 X91.497 Y65.588 E107.96657
G1 X91.444 Y65.834 E107.97494
G1 X91.317 Y66.078 E107.98409
G1 X91.078 Y66.317 E107.99533
G1 X90.811 Y66.451 E108.00526
G1 X90.5 Y66.5 E108.01573
G1 X81.5 Y66.5 E108.31508
G1 X81.219 Y66.461 E108.32451
G1 X80.971 Y66.35 E108.33355
G1 X80.775 Y66.19 E108.34196
G1 X80.638 Y66.008 E108.34954
G1 X80.5 Y65.608 E108.36361
G1 X80.504 Y56.4 E108.66987
G1 X80.617 Y56.029 E108.68277
G1 X80.899 Y55.699 E108.69721
G1 X81.115 Y55.576 E108.70548
M204 S2000
M205 X10 Y10
G0 F3000 X91.328 Y55.672
G0 X93.1 Y56.439
G0 X93.8 Y56.439
M204 S1000
M205 X8 Y8
;TYPE:WALL-OUTER
G1 F1500 X93.945 Y56.307 E108.712
G1 X93.972 Y56.301 E108.71292
G1 X103.035 Y56.302 E109.01436
G1 X103.122 Y56.34 E109.01751
G1 X103.2 Y56.439 E109.02171
G1 X103.2 Y65.518 E109.32367
G1 X103.164 Y65.616 E109.32715
G1 X103.035 Y65.698 E109.33223
G1 X93.955 Y65.7 E109.63423
G1 X93.836 Y65.616 E109.63908
G1 X93.8 Y65.518 E109.64255
G1 X93.8 Y56.439 E109.94452
M204 S2000
M205 X10 Y10
G0 F3000 X93.945 Y56.307
G0 X93.949 Y56.307
G0 X93.949 Y55.6
G0 X93.172 Y66.328
G0 X93.653 Y65.99
M204 S1000
M205 X8 Y8
;TYPE:WALL-INNER
G1 F1500 X93.509 Y65.847 E109.95127
G1 X93.402 Y65.553 E109.96167
G1 X93.4 Y56.5 E110.26278
G1 X93.45 Y56.259 E110.27096
G1 X93.548 Y56.104 E110.27706
G1 X93.835 Y55.923 E110.28835
G1 X93.916 Y55.905 E110.29111
G1 X103.072 Y55.9 E110.59564
G1 X103.298 Y55.978 E110.60359
G1 X103.452 Y56.104 E110.61021
G1 X103.55 Y56.259 E110.61631
G1 X103.6 Y56.5 E110.62449
G1 X103.598 Y65.553 E110.9256
G1 X103.491 Y65.847 E110.936
G1 X103.347 Y65.99 E110.94275
G1 X103.072 Y66.1 E110.95261
G1 X94 Y66.1 E111.25434
G1 X93.813 Y66.071 E111.26064
G1 X93.653 Y65.99 E111.2666
M204 S2000
M205 X10 Y10
G0 F3000 X93.689 Y66.451
M204 S1000
M205 X8 Y8
G1 F1500 X93.422 Y66.317 E111.27654
G1 X93.183 Y66.078 E111.28778
G1 X93.056 Y65.834 E111.29693
G1 X93.003 Y65.588 E111.3053
G1 X93 Y56.5 E111.60757
G1 X93.083 Y56.098 E111.62122
G1 X93.247 Y55.841 E111.63136
G1 X93.503 Y55.631 E111.64237
G1 X93.725 Y55.538 E111.65038
G1 X93.902 Y55.5 E111.6564
G1 X103.098 Y55.5 E111.96226
G1 X103.497 Y55.631 E111.97623
G1 X103.753 Y55.841 E111.98724
G1 X103.917 Y56.098 E111.99738
G1 X104 Y56.5 E112.01103
G1 X103.997 Y65.588 E112.3133
G1 X103.944 Y65.834 E112.32167
G1 X103.817 Y66.078 E112.33082
G1 X103.578 Y66.317 E112.34206
G1 X103.311 Y66.451 E112.352
G1 X103 Y66.5 E112.36247
G1 X94 Y66.5 E112.66181
G1 X93.689 Y66.451 E112.67228
M204 S2000
M205 X10 Y10
G0 F3000 X103.828 Y66.328
G0 X105.672 Y55.672
G0 X106.437 Y56.309
M204 S1000
M205 X8 Y8
;TYPE:WALL-OUTER
G1 F1500 X106.472 Y56.301 E112.67347
G1 X115.535 Y56.302 E112.97491
G1 X115.622 Y56.34 E112.97807
G1 X115.7 Y56.439 E112.98226
G1 X115.7 Y65.518 E113.28423
G1 X115.664 Y65.616 E113.2877
G1 X115.535 Y65.698 E113.29279
G1 X106.455 Y65.7 E113.59479
G1 X106.336 Y65.616 E113.59963
G1 X106.3 Y65.518 E113.6031
G1 X106.3 Y56.439 E113.90507
G1 X106.437 Y56.309 E113.91135
M204 S2000
M205 X10 Y10
G0 F3000 X106.472 Y56.301
G0 X106.637 Y56.301
G0 X106.637 Y55.6
G0 X105.672 Y55.672
G0 X105.672 Y66.328
G0 X106.153 Y65.99
M204 S1000
M205 X8 Y8
;TYPE:WALL-INNER
G1 F1500 X106.009 Y65.847 E113.9181
G1 X105.902 Y65.553 E113.92851
G1 X105.9 Y56.5 E114.22961
G1 X105.95 Y56.259 E114.2378
G1 X106.048 Y56.104 E114.2439
G1 X106.313 Y55.929 E114.25446
G1 X106.416 Y55.905 E114.25798
G1 X115.572 Y55.9 E114.56251
G1 X115.798 Y55.978 E114.57046
G1 X115.952 Y56.104 E114.57708
G1 X116.05 Y56.259 E114.58318
G1 X116.1 Y56.5 E114.59137
G1 X116.098 Y65.553 E114.89247
G1 X115.991 Y65.847 E114.90288
G1 X115.847 Y65.99 E114.90963
G1 X115.572 Y66.1 E114.91948
G1 X106.5 Y66.1 E115.22121
G1 X106.313 Y66.071 E115.22751
G1 X106.153 Y65.99 E115.23347
M204 S2000
M205 X10 Y10
G0 F3000 X106.189 Y66.451
M204 S1000
M205 X8 Y8
G1 F1500 X105.922 Y66.317 E115.24341
G1 X105.683 Y66.078 E115.25465
G1 X105.556 Y65.834 E115.2638
G1 X105.503 Y65.588 E115.27217
G1 X105.5 Y56.5 E115.57444
G1 X105.583 Y56.098 E115.58809
G1 X105.747 Y55.841 E115.59823
G1 X106.003 Y55.631 E115.60924
G1 X106.189 Y55.549 E115.616
G1 X106.5 Y55.5 E115.62647
G1 X115.598 Y55.5 E115.92907
G1 X115.997 Y55.631 E115.94304
G1 X116.253 Y55.841 E115.95405
G1 X116.417 Y56.098 E115.96419
G1 X116.5 Y56.5 E115.97785
G1 X116.497 Y65.588 E116.28012
G1 X116.444 Y65.834 E116.28849
G1 X116.317 Y66.078 E116.29763
G1 X116.078 Y66.317 E116.30888
G1 X115.811 Y66.451 E116.31881
G1 X115.5 Y66.5 E116.32928
G1 X106.5 Y66.5 E116.62862
G1 X106.189 Y66.451 E116.6391
M204 S2000
M205 X10 Y10
G0 F3000 X116.328 Y66.328
G0 X118.172 Y55.672
G0 X118.878 Y56.34
M204 S1000
M205 X8 Y8
;TYPE:WALL-OUTER
G1 F1500 X118.972 Y56.301 E116.64248
G1 X128.035 Y56.302 E116.94392
G1 X128.122 Y56.34 E116.94708
G1 X128.2 Y56.439 E116.95127
G1 X128.2 Y65.518 E117.25324
G1 X128.164 Y65.616 E117.25671
G1 X128.035 Y65.698 E117.26179
G1 X118.955 Y65.7 E117.56379
G1 X118.836 Y65.616 E117.56864
G1 X118.8 Y65.518 E117.57211
G1 X118.8 Y56.439 E117.87408
G1 X118.878 Y56.34 E117.87827
M204 S2000
M205 X10 Y10
G0 F3000 X118.972 Y56.301
G0 X119.071 Y56.301
G0 X118.548 Y56.104
M204 S1000
M205 X8 Y8
;TYPE:WALL-INNER
G1 F1500 X118.702 Y55.978 E117.88489
G1 X118.916 Y55.905 E117.89241
G1 X128.072 Y55.9 E118.19694
G1 X128.298 Y55.978 E118.20489
G1 X128.452 Y56.104 E118.21151
G1 X128.55 Y56.259 E118.21761
G1 X128.6 Y56.5 E118.2258
G1 X128.598 Y65.553 E118.5269
G1 X128.491 Y65.847 E118.53731
G1 X128.347 Y65.99 E118.54406
G1 X128.104 Y66.092 E118.55282
G1 X128 Y66.1 E118.55629
G1 X119 Y66.1 E118.85563
G1 X118.813 Y66.071 E118.86193
G1 X118.653 Y65.99 E118.86789
G1 X118.509 Y65.847 E118.87464
G1 X118.402 Y65.553 E118.88505
G1 X118.4 Y56.5 E119.18615
G1 X118.45 Y56.259 E119.19434
G1 X118.548 Y56.104 E119.20044
M204 S2000
M205 X10 Y10
G0 F3000 X118.083 Y56.098
M204 S1000
M205 X8 Y8
G1 F1500 X118.247 Y55.841 E119.21058
G1 X118.394 Y55.704 E119.21726
G1 X118.644 Y55.565 E119.22677
G1 X118.895 Y55.5 E119.2354
G1 X128.098 Y55.5 E119.54149
G1 X128.497 Y55.631 E119.55546
G1 X128.753 Y55.841 E119.56647
G1 X128.917 Y56.098 E119.57661
G1 X129 Y56.5 E119.59026
G1 X128.997 Y65.588 E119.89253
G1 X128.944 Y65.834 E119.9009
G1 X128.817 Y66.078 E119.91005
G1 X128.578 Y66.317 E119.92129
G1 X128.173 Y66.486 E119.93589
G1 X128 Y66.5 E119.94166
G1 X119 Y66.5 E120.241
G1 X118.689 Y66.451 E120.25147
G1 X118.422 Y66.317 E120.26141
G1 X118.183 Y66.078 E120.27265
G1 X118.056 Y65.834 E120.2818
G1 X118.003 Y65.588 E120.29017
G1 X118 Y56.5 E120.59244
G1 X118.083 Y56.098 E120.60609
M204 S2000
M205 X10 Y10
G0 F3000 X131.437 Y55.6
G0 X131.437 Y56.309
M204 S1000
